(ROTOR DISK WITH 10 MAGNETS)
(T1  D=6. CR=0. - ZMIN=-22. - FLAT END MILL)
G90 G94 G91.1 G40 G49 G17
G21
(WHEN USING FUSION 360 FOR PERSONAL USE, THE FEEDRATE OF)
(RAPID MOVES IS REDUCED TO MATCH THE FEEDRATE OF CUTTING)
(MOVES, WHICH CAN INCREASE MACHINING TIME. UNRESTRICTED RAPID)
(MOVES ARE AVAILABLE WITH A FUSION 360 SUBSCRIPTION.)
G28 G91 Z0.
G90

(2D CONTOUR1)
M5
T1 M6
S6300 M3
G54
G0 X225.8 Y224.4
G43 Z15. H1
G1 Z5. F500.
Z4.15 F250.
Z-2.55
G18 G3 X225.2 Z-3.15 I-0.6 K0. F500.
G1 X224.6
G17 G2 X224. Y225. I0. J0.6
X226. I1. J0.
X224. I-1. J0.
X229. I2.5 J0.
X221. I-4. J0.
X232. I5.5 J0.
X218. I-7. J0.
X232. I7. J0.
X231.4 Y224.4 I-0.6 J0.
G1 X230.8
G18 G3 X230.2 Z-2.55 I0. K0.6
G1 X225.8
Z-5.7 F250.
G3 X225.2 Z-6.3 I-0.6 K0. F500.
G1 X224.6
G17 G2 X224. Y225. I0. J0.6
X226. I1. J0.
X224. I-1. J0.
X229. I2.5 J0.
X221. I-4. J0.
X232. I5.5 J0.
X218. I-7. J0.
X232. I7. J0.
X231.4 Y224.4 I-0.6 J0.
G1 X230.8
G18 G3 X230.2 Z-5.7 I0. K0.6
G1 X225.8
Z-8.85 F250.
G3 X225.2 Z-9.45 I-0.6 K0. F500.
G1 X224.6
G17 G2 X224. Y225. I0. J0.6
X226. I1. J0.
X224. I-1. J0.
X229. I2.5 J0.
X221. I-4. J0.
X232. I5.5 J0.
X218. I-7. J0.
X232. I7. J0.
X231.4 Y224.4 I-0.6 J0.
G1 X230.8
G18 G3 X230.2 Z-8.85 I0. K0.6
G1 X225.8
Z-12. F250.
G3 X225.2 Z-12.6 I-0.6 K0. F500.
G1 X224.6
G17 G2 X224. Y225. I0. J0.6
X226. I1. J0.
X224. I-1. J0.
X229. I2.5 J0.
X221. I-4. J0.
X232. I5.5 J0.
X218. I-7. J0.
X232. I7. J0.
X231.4 Y224.4 I-0.6 J0.
G1 X230.8
G18 G3 X230.2 Z-12. I0. K0.6
G1 X225.8
Z-15.15 F250.
G3 X225.2 Z-15.75 I-0.6 K0. F500.
G1 X224.6
G17 G2 X224. Y225. I0. J0.6
X226. I1. J0.
X224. I-1. J0.
X229. I2.5 J0.
X221. I-4. J0.
X232. I5.5 J0.
X218. I-7. J0.
X232. I7. J0.
X231.4 Y224.4 I-0.6 J0.
G1 X230.8
G18 G3 X230.2 Z-15.15 I0. K0.6
G1 X225.8
Z-18.3 F250.
G3 X225.2 Z-18.9 I-0.6 K0. F500.
G1 X224.6
G17 G2 X224. Y225. I0. J0.6
X226. I1. J0.
X224. I-1. J0.
X229. I2.5 J0.
X221. I-4. J0.
X232. I5.5 J0.
X218. I-7. J0.
X232. I7. J0.
X231.4 Y224.4 I-0.6 J0.
G1 X230.8
G18 G3 X230.2 Z-18.3 I0. K0.6
G1 X225.8
Z-21.4 F250.
G3 X225.2 Z-22. I-0.6 K0. F500.
G1 X224.6
G17 G2 X224. Y225. I0. J0.6
X226. I1. J0.
X224. I-1. J0.
X229. I2.5 J0.
X221. I-4. J0.
X232. I5.5 J0.
X218. I-7. J0.
X232. I7. J0.
X231.4 Y224.4 I-0.6 J0.
G1 X230.8
G18 G3 X230.2 Z-21.4 I0. K0.6
G1 Z15.
G17
(WHEN USING FUSION 360 FOR PERSONAL USE, THE FEEDRATE OF)
(RAPID MOVES IS REDUCED TO MATCH THE FEEDRATE OF CUTTING)
(MOVES, WHICH CAN INCREASE MACHINING TIME. UNRESTRICTED RAPID)
(MOVES ARE AVAILABLE WITH A FUSION 360 SUBSCRIPTION.)

(2D CONTOUR1 2)
G0 X122.271 Y391.977
G1 Z15. F500.
Z5.
Z4.15 F250.
Z-2.95
G18 G2 X122.471 Z-3.15 I0.2 K0. F500.
G1 X122.671
G17 G2 X122.871 Y391.777 I0. J-0.2
X121.871 I-0.5 J0.
X122.871 I0.5 J0.
X122.671 Y391.577 I-0.2 J0.
G1 X122.471
G18 G3 X122.271 Z-2.95 I0. K0.2
G1 Y391.977
Z-6.1 F250.
G2 X122.471 Z-6.3 I0.2 K0. F500.
G1 X122.671
G17 G2 X122.871 Y391.777 I0. J-0.2
X121.871 I-0.5 J0.
X122.871 I0.5 J0.
X122.671 Y391.577 I-0.2 J0.
G1 X122.471
G18 G3 X122.271 Z-6.1 I0. K0.2
G1 Y391.977
Z-9.25 F250.
G2 X122.471 Z-9.45 I0.2 K0. F500.
G1 X122.671
G17 G2 X122.871 Y391.777 I0. J-0.2
X121.871 I-0.5 J0.
X122.871 I0.5 J0.
X122.671 Y391.577 I-0.2 J0.
G1 X122.471
G18 G3 X122.271 Z-9.25 I0. K0.2
G1 Y391.977
Z-12.4 F250.
G2 X122.471 Z-12.6 I0.2 K0. F500.
G1 X122.671
G17 G2 X122.871 Y391.777 I0. J-0.2
X121.871 I-0.5 J0.
X122.871 I0.5 J0.
X122.671 Y391.577 I-0.2 J0.
G1 X122.471
G18 G3 X122.271 Z-12.4 I0. K0.2
G1 Y391.977
Z-15.55 F250.
G2 X122.471 Z-15.75 I0.2 K0. F500.
G1 X122.671
G17 G2 X122.871 Y391.777 I0. J-0.2
X121.871 I-0.5 J0.
X122.871 I0.5 J0.
X122.671 Y391.577 I-0.2 J0.
G1 X122.471
G18 G3 X122.271 Z-15.55 I0. K0.2
G1 Y391.977
Z-18.7 F250.
G2 X122.471 Z-18.9 I0.2 K0. F500.
G1 X122.671
G17 G2 X122.871 Y391.777 I0. J-0.2
X121.871 I-0.5 J0.
X122.871 I0.5 J0.
X122.671 Y391.577 I-0.2 J0.
G1 X122.471
G18 G3 X122.271 Z-18.7 I0. K0.2
G1 Y391.977
Z-21.8 F250.
G2 X122.471 Z-22. I0.2 K0. F500.
G1 X122.671
G17 G2 X122.871 Y391.777 I0. J-0.2
X121.871 I-0.5 J0.
X122.871 I0.5 J0.
X122.671 Y391.577 I-0.2 J0.
G1 X122.471
G18 G3 X122.271 Z-21.8 I0. K0.2
G1 Z5.
X134.32 Y375.392
Z4.15 F250.
Z-2.95
G2 X134.52 Z-3.15 I0.2 K0. F500.
G1 X134.72
G17 G2 X134.92 Y375.192 I0. J-0.2
X133.92 I-0.5 J0.
X134.92 I0.5 J0.
X134.72 Y374.992 I-0.2 J0.
G1 X134.52
G18 G3 X134.32 Z-2.95 I0. K0.2
G1 Y375.392
Z-6.1 F250.
G2 X134.52 Z-6.3 I0.2 K0. F500.
G1 X134.72
G17 G2 X134.92 Y375.192 I0. J-0.2
X133.92 I-0.5 J0.
X134.92 I0.5 J0.
X134.72 Y374.992 I-0.2 J0.
G1 X134.52
G18 G3 X134.32 Z-6.1 I0. K0.2
G1 Y375.392
Z-9.25 F250.
G2 X134.52 Z-9.45 I0.2 K0. F500.
G1 X134.72
G17 G2 X134.92 Y375.192 I0. J-0.2
X133.92 I-0.5 J0.
X134.92 I0.5 J0.
X134.72 Y374.992 I-0.2 J0.
G1 X134.52
G18 G3 X134.32 Z-9.25 I0. K0.2
G1 Y375.392
Z-12.4 F250.
G2 X134.52 Z-12.6 I0.2 K0. F500.
G1 X134.72
G17 G2 X134.92 Y375.192 I0. J-0.2
X133.92 I-0.5 J0.
X134.92 I0.5 J0.
X134.72 Y374.992 I-0.2 J0.
G1 X134.52
G18 G3 X134.32 Z-12.4 I0. K0.2
G1 Y375.392
Z-15.55 F250.
G2 X134.52 Z-15.75 I0.2 K0. F500.
G1 X134.72
G17 G2 X134.92 Y375.192 I0. J-0.2
X133.92 I-0.5 J0.
X134.92 I0.5 J0.
X134.72 Y374.992 I-0.2 J0.
G1 X134.52
G18 G3 X134.32 Z-15.55 I0. K0.2
G1 Y375.392
Z-18.7 F250.
G2 X134.52 Z-18.9 I0.2 K0. F500.
G1 X134.72
G17 G2 X134.92 Y375.192 I0. J-0.2
X133.92 I-0.5 J0.
X134.92 I0.5 J0.
X134.72 Y374.992 I-0.2 J0.
G1 X134.52
G18 G3 X134.32 Z-18.7 I0. K0.2
G1 Y375.392
Z-21.8 F250.
G2 X134.52 Z-22. I0.2 K0. F500.
G1 X134.72
G17 G2 X134.92 Y375.192 I0. J-0.2
X133.92 I-0.5 J0.
X134.92 I0.5 J0.
X134.72 Y374.992 I-0.2 J0.
G1 X134.52
G18 G3 X134.32 Z-21.8 I0. K0.2
G1 Z5.
X109.951 Y357.662
Z4.15 F250.
Z-2.95
X109.956 Y357.666 Z-3.002 F500.
X109.972 Y357.678 Z-3.05
X109.998 Y357.697 Z-3.091
X110.032 Y357.721 Z-3.123
X110.071 Y357.749 Z-3.143
X110.112 Y357.78 Z-3.15
X110.274 Y357.897
G17 G2 X110.554 Y357.853 I0.118 J-0.162
X109.745 Y357.266 I-0.404 J-0.294
X110.554 Y357.853 I0.404 J0.294
X110.509 Y357.574 I-0.162 J-0.118
G1 X110.347 Y357.456
X110.306 Y357.426 Z-3.143
X110.267 Y357.397 Z-3.123
X110.233 Y357.373 Z-3.091
X110.207 Y357.354 Z-3.05
X110.191 Y357.343 Z-3.002
X110.186 Y357.339 Z-2.95
X109.951 Y357.662
Z-6.1 F250.
X109.956 Y357.666 Z-6.152 F500.
X109.972 Y357.678 Z-6.2
X109.998 Y357.697 Z-6.241
X110.032 Y357.721 Z-6.273
X110.071 Y357.749 Z-6.293
X110.112 Y357.78 Z-6.3
X110.274 Y357.897
G2 X110.554 Y357.853 I0.118 J-0.162
X109.745 Y357.266 I-0.404 J-0.294
X110.554 Y357.853 I0.404 J0.294
X110.509 Y357.574 I-0.162 J-0.118
G1 X110.347 Y357.456
X110.306 Y357.426 Z-6.293
X110.267 Y357.397 Z-6.273
X110.233 Y357.373 Z-6.241
X110.207 Y357.354 Z-6.2
X110.191 Y357.343 Z-6.152
X110.186 Y357.339 Z-6.1
X109.951 Y357.662
Z-9.25 F250.
X109.956 Y357.666 Z-9.302 F500.
X109.972 Y357.678 Z-9.35
X109.998 Y357.697 Z-9.391
X110.032 Y357.721 Z-9.423
X110.071 Y357.749 Z-9.443
X110.112 Y357.78 Z-9.45
X110.274 Y357.897
G2 X110.554 Y357.853 I0.118 J-0.162
X109.745 Y357.266 I-0.404 J-0.294
X110.554 Y357.853 I0.404 J0.294
X110.509 Y357.574 I-0.162 J-0.118
G1 X110.347 Y357.456
X110.306 Y357.426 Z-9.443
X110.267 Y357.397 Z-9.423
X110.233 Y357.373 Z-9.391
X110.207 Y357.354 Z-9.35
X110.191 Y357.343 Z-9.302
X110.186 Y357.339 Z-9.25
X109.951 Y357.662
Z-12.4 F250.
X109.956 Y357.666 Z-12.452 F500.
X109.972 Y357.678 Z-12.5
X109.998 Y357.697 Z-12.541
X110.032 Y357.721 Z-12.573
X110.071 Y357.749 Z-12.593
X110.112 Y357.78 Z-12.6
X110.274 Y357.897
G2 X110.554 Y357.853 I0.118 J-0.162
X109.745 Y357.266 I-0.404 J-0.294
X110.554 Y357.853 I0.404 J0.294
X110.509 Y357.574 I-0.162 J-0.118
G1 X110.347 Y357.456
X110.306 Y357.426 Z-12.593
X110.267 Y357.397 Z-12.573
X110.233 Y357.373 Z-12.541
X110.207 Y357.354 Z-12.5
X110.191 Y357.343 Z-12.452
X110.186 Y357.339 Z-12.4
X109.951 Y357.662
Z-15.55 F250.
X109.956 Y357.666 Z-15.602 F500.
X109.972 Y357.678 Z-15.65
X109.998 Y357.697 Z-15.691
X110.032 Y357.721 Z-15.723
X110.071 Y357.749 Z-15.743
X110.112 Y357.78 Z-15.75
X110.274 Y357.897
G2 X110.554 Y357.853 I0.118 J-0.162
X109.745 Y357.266 I-0.404 J-0.294
X110.554 Y357.853 I0.404 J0.294
X110.509 Y357.574 I-0.162 J-0.118
G1 X110.347 Y357.456
X110.306 Y357.426 Z-15.743
X110.267 Y357.397 Z-15.723
X110.233 Y357.373 Z-15.691
X110.207 Y357.354 Z-15.65
X110.191 Y357.343 Z-15.602
X110.186 Y357.339 Z-15.55
X109.951 Y357.662
Z-18.7 F250.
X109.956 Y357.666 Z-18.752 F500.
X109.972 Y357.678 Z-18.8
X109.998 Y357.697 Z-18.841
X110.032 Y357.721 Z-18.873
X110.071 Y357.749 Z-18.893
X110.112 Y357.78 Z-18.9
X110.274 Y357.897
G2 X110.554 Y357.853 I0.118 J-0.162
X109.745 Y357.266 I-0.404 J-0.294
X110.554 Y357.853 I0.404 J0.294
X110.509 Y357.574 I-0.162 J-0.118
G1 X110.347 Y357.456
X110.306 Y357.426 Z-18.893
X110.267 Y357.397 Z-18.873
X110.233 Y357.373 Z-18.841
X110.207 Y357.354 Z-18.8
X110.191 Y357.343 Z-18.752
X110.186 Y357.339 Z-18.7
X109.951 Y357.662
Z-21.8 F250.
X109.956 Y357.666 Z-21.852 F500.
X109.972 Y357.678 Z-21.9
X109.998 Y357.697 Z-21.941
X110.032 Y357.721 Z-21.973
X110.071 Y357.749 Z-21.993
X110.112 Y357.78 Z-22.
X110.274 Y357.897
G2 X110.554 Y357.853 I0.118 J-0.162
X109.745 Y357.266 I-0.404 J-0.294
X110.554 Y357.853 I0.404 J0.294
X110.509 Y357.574 I-0.162 J-0.118
G1 X110.347 Y357.456
X110.306 Y357.426 Z-21.993
X110.267 Y357.397 Z-21.973
X110.233 Y357.373 Z-21.941
X110.207 Y357.354 Z-21.9
X110.191 Y357.343 Z-21.852
X110.186 Y357.339 Z-21.8
Z5.
X98.056 Y374.363
Z4.15 F250.
Z-2.95
X98.063 Y374.362 Z-3.002 F500.
X98.082 Y374.356 Z-3.05
X98.113 Y374.348 Z-3.091
X98.153 Y374.337 Z-3.123
X98.199 Y374.324 Z-3.143
X98.249 Y374.31 Z-3.15
X98.442 Y374.257
G2 X98.581 Y374.011 I-0.053 J-0.193
X97.618 Y374.277 I-0.482 J0.133
X98.581 Y374.011 I0.482 J-0.133
X98.335 Y373.871 I-0.193 J0.053
G1 X98.143 Y373.925
X98.093 Y373.938 Z-3.143
X98.046 Y373.951 Z-3.123
X98.006 Y373.962 Z-3.091
X97.976 Y373.971 Z-3.05
X97.956 Y373.976 Z-3.002
X97.95 Y373.978 Z-2.95
X98.056 Y374.363
Z-6.1 F250.
X98.063 Y374.362 Z-6.152 F500.
X98.082 Y374.356 Z-6.2
X98.113 Y374.348 Z-6.241
X98.153 Y374.337 Z-6.273
X98.199 Y374.324 Z-6.293
X98.249 Y374.31 Z-6.3
X98.442 Y374.257
G2 X98.581 Y374.011 I-0.053 J-0.193
X97.618 Y374.277 I-0.482 J0.133
X98.581 Y374.011 I0.482 J-0.133
X98.335 Y373.871 I-0.193 J0.053
G1 X98.143 Y373.925
X98.093 Y373.938 Z-6.293
X98.046 Y373.951 Z-6.273
X98.006 Y373.962 Z-6.241
X97.976 Y373.971 Z-6.2
X97.956 Y373.976 Z-6.152
X97.95 Y373.978 Z-6.1
X98.056 Y374.363
Z-9.25 F250.
X98.063 Y374.362 Z-9.302 F500.
X98.082 Y374.356 Z-9.35
X98.113 Y374.348 Z-9.391
X98.153 Y374.337 Z-9.423
X98.199 Y374.324 Z-9.443
X98.249 Y374.31 Z-9.45
X98.442 Y374.257
G2 X98.581 Y374.011 I-0.053 J-0.193
X97.618 Y374.277 I-0.482 J0.133
X98.581 Y374.011 I0.482 J-0.133
X98.335 Y373.871 I-0.193 J0.053
G1 X98.143 Y373.925
X98.093 Y373.938 Z-9.443
X98.046 Y373.951 Z-9.423
X98.006 Y373.962 Z-9.391
X97.976 Y373.971 Z-9.35
X97.956 Y373.976 Z-9.302
X97.95 Y373.978 Z-9.25
X98.056 Y374.363
Z-12.4 F250.
X98.063 Y374.362 Z-12.452 F500.
X98.082 Y374.356 Z-12.5
X98.113 Y374.348 Z-12.541
X98.153 Y374.337 Z-12.573
X98.199 Y374.324 Z-12.593
X98.249 Y374.31 Z-12.6
X98.442 Y374.257
G2 X98.581 Y374.011 I-0.053 J-0.193
X97.618 Y374.277 I-0.482 J0.133
X98.581 Y374.011 I0.482 J-0.133
X98.335 Y373.871 I-0.193 J0.053
G1 X98.143 Y373.925
X98.093 Y373.938 Z-12.593
X98.046 Y373.951 Z-12.573
X98.006 Y373.962 Z-12.541
X97.976 Y373.971 Z-12.5
X97.956 Y373.976 Z-12.452
X97.95 Y373.978 Z-12.4
X98.056 Y374.363
Z-15.55 F250.
X98.063 Y374.362 Z-15.602 F500.
X98.082 Y374.356 Z-15.65
X98.113 Y374.348 Z-15.691
X98.153 Y374.337 Z-15.723
X98.199 Y374.324 Z-15.743
X98.249 Y374.31 Z-15.75
X98.442 Y374.257
G2 X98.581 Y374.011 I-0.053 J-0.193
X97.618 Y374.277 I-0.482 J0.133
X98.581 Y374.011 I0.482 J-0.133
X98.335 Y373.871 I-0.193 J0.053
G1 X98.143 Y373.925
X98.093 Y373.938 Z-15.743
X98.046 Y373.951 Z-15.723
X98.006 Y373.962 Z-15.691
X97.976 Y373.971 Z-15.65
X97.956 Y373.976 Z-15.602
X97.95 Y373.978 Z-15.55
X98.056 Y374.363
Z-18.7 F250.
X98.063 Y374.362 Z-18.752 F500.
X98.082 Y374.356 Z-18.8
X98.113 Y374.348 Z-18.841
X98.153 Y374.337 Z-18.873
X98.199 Y374.324 Z-18.893
X98.249 Y374.31 Z-18.9
X98.442 Y374.257
G2 X98.581 Y374.011 I-0.053 J-0.193
X97.618 Y374.277 I-0.482 J0.133
X98.581 Y374.011 I0.482 J-0.133
X98.335 Y373.871 I-0.193 J0.053
G1 X98.143 Y373.925
X98.093 Y373.938 Z-18.893
X98.046 Y373.951 Z-18.873
X98.006 Y373.962 Z-18.841
X97.976 Y373.971 Z-18.8
X97.956 Y373.976 Z-18.752
X97.95 Y373.978 Z-18.7
X98.056 Y374.363
Z-21.8 F250.
X98.063 Y374.362 Z-21.852 F500.
X98.082 Y374.356 Z-21.9
X98.113 Y374.348 Z-21.941
X98.153 Y374.337 Z-21.973
X98.199 Y374.324 Z-21.993
X98.249 Y374.31 Z-22.
X98.442 Y374.257
G2 X98.581 Y374.011 I-0.053 J-0.193
X97.618 Y374.277 I-0.482 J0.133
X98.581 Y374.011 I0.482 J-0.133
X98.335 Y373.871 I-0.193 J0.053
G1 X98.143 Y373.925
X98.093 Y373.938 Z-21.993
X98.046 Y373.951 Z-21.973
X98.006 Y373.962 Z-21.941
X97.976 Y373.971 Z-21.9
X97.956 Y373.976 Z-21.852
X97.95 Y373.978 Z-21.8
Z15.
(WHEN USING FUSION 360 FOR PERSONAL USE, THE FEEDRATE OF)
(RAPID MOVES IS REDUCED TO MATCH THE FEEDRATE OF CUTTING)
(MOVES, WHICH CAN INCREASE MACHINING TIME. UNRESTRICTED RAPID)
(MOVES ARE AVAILABLE WITH A FUSION 360 SUBSCRIPTION.)

(2D POCKET1 2)
G0 X107.346 Y368.231
G1 Z15. F500.
Z5.
Z4. F250.
Z-1.4
X107.347 Y368.202 Z-1.585
X107.342 Y368.117 Z-1.753
X107.329 Y368.052 Z-1.819
X107.31 Y367.988 Z-1.885
X107.275 Y367.912 Z-1.928
X107.231 Y367.842 Z-1.971
X107.17 Y367.771 Z-1.985
X107.1 Y367.711 Z-2.
X104.302 Y365.678 F500.
G2 X104.015 Y366.073 I-0.144 J0.198
G1 X128.218 Y383.658
G2 X128.505 Y383.263 I0.143 J-0.197
G1 X107.1 Y367.711
G3 X106.005 Y364.753 I1.671 J-2.301
G2 X104.91 Y361.794 I-2.766 J-0.658
G1 X103.549 Y360.806
G2 X103.112 Y360.875 I-0.184 J0.253
G1 X99.078 Y366.427
G2 X99.148 Y366.864 I0.253 J0.184
G1 X128.97 Y388.531
G2 X129.407 Y388.462 I0.184 J-0.253
G1 X133.441 Y382.91
G2 X133.371 Y382.473 I-0.253 J-0.184
G1 X104.91 Y361.794
G3 X103.541 Y358.799 I1.969 J-2.71
G2 X103.062 Y355.541 I-7.165 J-0.612
G3 X102.864 Y354.703 I2.79 J-1.104
G2 X102.288 Y354.253 I-0.498 J0.044
X101.878 Y354.859 I0.078 J0.494
G3 X101.381 Y357.292 I-2.924 J0.67
G1 X95.137 Y365.887
G3 X92.976 Y367.112 I-2.427 J-1.763
G2 X92.526 Y367.689 I0.044 J0.498
X93.132 Y368.098 I0.494 J-0.078
G3 X95.566 Y368.595 I0.671 J2.924
G1 X97.031 Y369.66
X102.694 Y373.774
X121.302 Y387.293
X126.965 Y391.408
X128.431 Y392.473
G3 X129.656 Y394.634 I-1.763 J2.427
G2 X130.232 Y395.084 I0.498 J-0.044
X130.641 Y394.478 I-0.078 J-0.494
G3 X131.138 Y392.044 I2.924 J-0.671
G1 X137.383 Y383.449
G3 X139.544 Y382.224 I2.427 J1.763
G2 X139.994 Y381.648 I-0.044 J-0.498
X139.388 Y381.239 I-0.494 J0.078
G3 X136.954 Y380.742 I-0.671 J-2.924
G1 X135.488 Y379.677
X129.825 Y375.562
X111.218 Y362.043
X105.555 Y357.929
X104.089 Y356.864
G3 X103.062 Y355.541 I1.763 J-2.427
G1 X103.043 Y355.509
X103.014 Y355.486
X102.978 Y355.474
X102.941 Y355.475
X102.906 Y355.488
X102.877 Y355.513
X102.859 Y355.545
X102.853 Y355.582
X102.864 Y355.968
X106.9 Y367.892
X107.138 Y368.284
X107.165 Y368.314
X107.201 Y368.332
X107.241 Y368.337
X107.28 Y368.327
X107.314 Y368.304
X107.336 Y368.271
X107.346 Y368.231
Z-3.4 F250.
X107.347 Y368.202 Z-3.585
X107.342 Y368.117 Z-3.753
X107.329 Y368.052 Z-3.819
X107.31 Y367.988 Z-3.885
X107.275 Y367.912 Z-3.928
X107.231 Y367.842 Z-3.971
X107.17 Y367.771 Z-3.985
X107.1 Y367.711 Z-4.
X104.302 Y365.678 F500.
G2 X104.015 Y366.073 I-0.144 J0.198
G1 X128.218 Y383.658
G2 X128.505 Y383.263 I0.143 J-0.197
G1 X107.1 Y367.711
G3 X106.005 Y364.753 I1.671 J-2.301
G2 X104.91 Y361.794 I-2.766 J-0.658
G1 X103.549 Y360.806
G2 X103.112 Y360.875 I-0.184 J0.253
G1 X99.078 Y366.427
G2 X99.148 Y366.864 I0.253 J0.184
G1 X128.97 Y388.531
G2 X129.407 Y388.462 I0.184 J-0.253
G1 X133.441 Y382.91
G2 X133.371 Y382.473 I-0.253 J-0.184
G1 X104.91 Y361.794
G3 X103.541 Y358.799 I1.969 J-2.71
G2 X103.062 Y355.541 I-7.165 J-0.612
G3 X102.864 Y354.703 I2.79 J-1.104
G2 X102.288 Y354.253 I-0.498 J0.044
X101.878 Y354.859 I0.078 J0.494
G3 X101.381 Y357.292 I-2.924 J0.67
G1 X95.137 Y365.887
G3 X92.976 Y367.112 I-2.427 J-1.763
G2 X92.526 Y367.689 I0.044 J0.498
X93.132 Y368.098 I0.494 J-0.078
G3 X95.566 Y368.595 I0.671 J2.924
G1 X97.031 Y369.66
X102.694 Y373.774
X121.302 Y387.293
X126.965 Y391.408
X128.431 Y392.473
G3 X129.656 Y394.634 I-1.763 J2.427
G2 X130.232 Y395.084 I0.498 J-0.044
X130.641 Y394.478 I-0.078 J-0.494
G3 X131.138 Y392.044 I2.924 J-0.671
G1 X137.383 Y383.449
G3 X139.544 Y382.224 I2.427 J1.763
G2 X139.994 Y381.648 I-0.044 J-0.498
X139.388 Y381.239 I-0.494 J0.078
G3 X136.954 Y380.742 I-0.671 J-2.924
G1 X135.488 Y379.677
X129.825 Y375.562
X111.218 Y362.043
X105.555 Y357.929
X104.089 Y356.864
G3 X103.062 Y355.541 I1.763 J-2.427
G1 X103. Y355.367 Z-3.971
X102.952 Y355.206 Z-3.885
X102.921 Y355.077 Z-3.753
X102.904 Y354.994 Z-3.585
X102.899 Y354.965 Z-3.4
Z15.
(WHEN USING FUSION 360 FOR PERSONAL USE, THE FEEDRATE OF)
(RAPID MOVES IS REDUCED TO MATCH THE FEEDRATE OF CUTTING)
(MOVES, WHICH CAN INCREASE MACHINING TIME. UNRESTRICTED RAPID)
(MOVES ARE AVAILABLE WITH A FUSION 360 SUBSCRIPTION.)

(2D CONTOUR1 4)
G0 X209.9 Y420.45
G1 Z15. F500.
Z5.
Z4.15 F250.
Z-2.95
G18 G2 X210.1 Z-3.15 I0.2 K0. F500.
G1 X210.3
G17 G2 X210.5 Y420.25 I0. J-0.2
X209.5 I-0.5 J0.
X210.5 I0.5 J0.
X210.3 Y420.05 I-0.2 J0.
G1 X210.1
G18 G3 X209.9 Z-2.95 I0. K0.2
G1 Y420.45
Z-6.1 F250.
G2 X210.1 Z-6.3 I0.2 K0. F500.
G1 X210.3
G17 G2 X210.5 Y420.25 I0. J-0.2
X209.5 I-0.5 J0.
X210.5 I0.5 J0.
X210.3 Y420.05 I-0.2 J0.
G1 X210.1
G18 G3 X209.9 Z-6.1 I0. K0.2
G1 Y420.45
Z-9.25 F250.
G2 X210.1 Z-9.45 I0.2 K0. F500.
G1 X210.3
G17 G2 X210.5 Y420.25 I0. J-0.2
X209.5 I-0.5 J0.
X210.5 I0.5 J0.
X210.3 Y420.05 I-0.2 J0.
G1 X210.1
G18 G3 X209.9 Z-9.25 I0. K0.2
G1 Y420.45
Z-12.4 F250.
G2 X210.1 Z-12.6 I0.2 K0. F500.
G1 X210.3
G17 G2 X210.5 Y420.25 I0. J-0.2
X209.5 I-0.5 J0.
X210.5 I0.5 J0.
X210.3 Y420.05 I-0.2 J0.
G1 X210.1
G18 G3 X209.9 Z-12.4 I0. K0.2
G1 Y420.45
Z-15.55 F250.
G2 X210.1 Z-15.75 I0.2 K0. F500.
G1 X210.3
G17 G2 X210.5 Y420.25 I0. J-0.2
X209.5 I-0.5 J0.
X210.5 I0.5 J0.
X210.3 Y420.05 I-0.2 J0.
G1 X210.1
G18 G3 X209.9 Z-15.55 I0. K0.2
G1 Y420.45
Z-18.7 F250.
G2 X210.1 Z-18.9 I0.2 K0. F500.
G1 X210.3
G17 G2 X210.5 Y420.25 I0. J-0.2
X209.5 I-0.5 J0.
X210.5 I0.5 J0.
X210.3 Y420.05 I-0.2 J0.
G1 X210.1
G18 G3 X209.9 Z-18.7 I0. K0.2
G1 Y420.45
Z-21.8 F250.
G2 X210.1 Z-22. I0.2 K0. F500.
G1 X210.3
G17 G2 X210.5 Y420.25 I0. J-0.2
X209.5 I-0.5 J0.
X210.5 I0.5 J0.
X210.3 Y420.05 I-0.2 J0.
G1 X210.1
G18 G3 X209.9 Z-21.8 I0. K0.2
G1 Z5.
X210.094 Y399.953
Z4.15 F250.
Z-2.95
X210.098 Y399.948 Z-3.002 F500.
X210.111 Y399.932 Z-3.05
X210.131 Y399.907 Z-3.091
X210.156 Y399.875 Z-3.123
X210.186 Y399.837 Z-3.143
X210.219 Y399.797 Z-3.15
X210.343 Y399.64
G17 G2 X210.312 Y399.359 I-0.156 J-0.125
X209.688 Y400.141 I-0.312 J0.391
X210.312 Y399.359 I0.312 J-0.391
X210.031 Y399.391 I-0.125 J0.156
G1 X209.906 Y399.547
X209.874 Y399.588 Z-3.143
X209.844 Y399.625 Z-3.123
X209.818 Y399.658 Z-3.091
X209.798 Y399.683 Z-3.05
X209.786 Y399.698 Z-3.002
X209.781 Y399.703 Z-2.95
X210.094 Y399.953
Z-6.1 F250.
X210.098 Y399.948 Z-6.152 F500.
X210.111 Y399.932 Z-6.2
X210.131 Y399.907 Z-6.241
X210.156 Y399.875 Z-6.273
X210.186 Y399.837 Z-6.293
X210.219 Y399.797 Z-6.3
X210.343 Y399.64
G2 X210.312 Y399.359 I-0.156 J-0.125
X209.688 Y400.141 I-0.312 J0.391
X210.312 Y399.359 I0.312 J-0.391
X210.031 Y399.391 I-0.125 J0.156
G1 X209.906 Y399.547
X209.874 Y399.588 Z-6.293
X209.844 Y399.625 Z-6.273
X209.818 Y399.658 Z-6.241
X209.798 Y399.683 Z-6.2
X209.786 Y399.698 Z-6.152
X209.781 Y399.703 Z-6.1
X210.094 Y399.953
Z-9.25 F250.
X210.098 Y399.948 Z-9.302 F500.
X210.111 Y399.932 Z-9.35
X210.131 Y399.907 Z-9.391
X210.156 Y399.875 Z-9.423
X210.186 Y399.837 Z-9.443
X210.219 Y399.797 Z-9.45
X210.343 Y399.64
G2 X210.312 Y399.359 I-0.156 J-0.125
X209.688 Y400.141 I-0.312 J0.391
X210.312 Y399.359 I0.312 J-0.391
X210.031 Y399.391 I-0.125 J0.156
G1 X209.906 Y399.547
X209.874 Y399.588 Z-9.443
X209.844 Y399.625 Z-9.423
X209.818 Y399.658 Z-9.391
X209.798 Y399.683 Z-9.35
X209.786 Y399.698 Z-9.302
X209.781 Y399.703 Z-9.25
X210.094 Y399.953
Z-12.4 F250.
X210.098 Y399.948 Z-12.452 F500.
X210.111 Y399.932 Z-12.5
X210.131 Y399.907 Z-12.541
X210.156 Y399.875 Z-12.573
X210.186 Y399.837 Z-12.593
X210.219 Y399.797 Z-12.6
X210.343 Y399.64
G2 X210.312 Y399.359 I-0.156 J-0.125
X209.688 Y400.141 I-0.312 J0.391
X210.312 Y399.359 I0.312 J-0.391
X210.031 Y399.391 I-0.125 J0.156
G1 X209.906 Y399.547
X209.874 Y399.588 Z-12.593
X209.844 Y399.625 Z-12.573
X209.818 Y399.658 Z-12.541
X209.798 Y399.683 Z-12.5
X209.786 Y399.698 Z-12.452
X209.781 Y399.703 Z-12.4
X210.094 Y399.953
Z-15.55 F250.
X210.098 Y399.948 Z-15.602 F500.
X210.111 Y399.932 Z-15.65
X210.131 Y399.907 Z-15.691
X210.156 Y399.875 Z-15.723
X210.186 Y399.837 Z-15.743
X210.219 Y399.797 Z-15.75
X210.343 Y399.64
G2 X210.312 Y399.359 I-0.156 J-0.125
X209.688 Y400.141 I-0.312 J0.391
X210.312 Y399.359 I0.312 J-0.391
X210.031 Y399.391 I-0.125 J0.156
G1 X209.906 Y399.547
X209.874 Y399.588 Z-15.743
X209.844 Y399.625 Z-15.723
X209.818 Y399.658 Z-15.691
X209.798 Y399.683 Z-15.65
X209.786 Y399.698 Z-15.602
X209.781 Y399.703 Z-15.55
X210.094 Y399.953
Z-18.7 F250.
X210.098 Y399.948 Z-18.752 F500.
X210.111 Y399.932 Z-18.8
X210.131 Y399.907 Z-18.841
X210.156 Y399.875 Z-18.873
X210.186 Y399.837 Z-18.893
X210.219 Y399.797 Z-18.9
X210.343 Y399.64
G2 X210.312 Y399.359 I-0.156 J-0.125
X209.688 Y400.141 I-0.312 J0.391
X210.312 Y399.359 I0.312 J-0.391
X210.031 Y399.391 I-0.125 J0.156
G1 X209.906 Y399.547
X209.874 Y399.588 Z-18.893
X209.844 Y399.625 Z-18.873
X209.818 Y399.658 Z-18.841
X209.798 Y399.683 Z-18.8
X209.786 Y399.698 Z-18.752
X209.781 Y399.703 Z-18.7
X210.094 Y399.953
Z-21.8 F250.
X210.098 Y399.948 Z-21.852 F500.
X210.111 Y399.932 Z-21.9
X210.131 Y399.907 Z-21.941
X210.156 Y399.875 Z-21.973
X210.186 Y399.837 Z-21.993
X210.219 Y399.797 Z-22.
X210.343 Y399.64
G2 X210.312 Y399.359 I-0.156 J-0.125
X209.688 Y400.141 I-0.312 J0.391
X210.312 Y399.359 I0.312 J-0.391
X210.031 Y399.391 I-0.125 J0.156
G1 X209.906 Y399.547
X209.874 Y399.588 Z-21.993
X209.844 Y399.625 Z-21.973
X209.818 Y399.658 Z-21.941
X209.798 Y399.683 Z-21.9
X209.786 Y399.698 Z-21.852
X209.781 Y399.703 Z-21.8
Z5.
X240.094 Y399.953
Z4.15 F250.
Z-2.95
X240.098 Y399.948 Z-3.002 F500.
X240.111 Y399.932 Z-3.05
X240.131 Y399.907 Z-3.091
X240.156 Y399.875 Z-3.123
X240.186 Y399.837 Z-3.143
X240.219 Y399.797 Z-3.15
X240.343 Y399.64
G2 X240.312 Y399.359 I-0.156 J-0.125
X239.688 Y400.141 I-0.312 J0.391
X240.312 Y399.359 I0.312 J-0.391
X240.031 Y399.391 I-0.125 J0.156
G1 X239.906 Y399.547
X239.874 Y399.588 Z-3.143
X239.844 Y399.625 Z-3.123
X239.818 Y399.658 Z-3.091
X239.798 Y399.683 Z-3.05
X239.786 Y399.698 Z-3.002
X239.781 Y399.703 Z-2.95
X240.094 Y399.953
Z-6.1 F250.
X240.098 Y399.948 Z-6.152 F500.
X240.111 Y399.932 Z-6.2
X240.131 Y399.907 Z-6.241
X240.156 Y399.875 Z-6.273
X240.186 Y399.837 Z-6.293
X240.219 Y399.797 Z-6.3
X240.343 Y399.64
G2 X240.312 Y399.359 I-0.156 J-0.125
X239.688 Y400.141 I-0.312 J0.391
X240.312 Y399.359 I0.312 J-0.391
X240.031 Y399.391 I-0.125 J0.156
G1 X239.906 Y399.547
X239.874 Y399.588 Z-6.293
X239.844 Y399.625 Z-6.273
X239.818 Y399.658 Z-6.241
X239.798 Y399.683 Z-6.2
X239.786 Y399.698 Z-6.152
X239.781 Y399.703 Z-6.1
X240.094 Y399.953
Z-9.25 F250.
X240.098 Y399.948 Z-9.302 F500.
X240.111 Y399.932 Z-9.35
X240.131 Y399.907 Z-9.391
X240.156 Y399.875 Z-9.423
X240.186 Y399.837 Z-9.443
X240.219 Y399.797 Z-9.45
X240.343 Y399.64
G2 X240.312 Y399.359 I-0.156 J-0.125
X239.688 Y400.141 I-0.312 J0.391
X240.312 Y399.359 I0.312 J-0.391
X240.031 Y399.391 I-0.125 J0.156
G1 X239.906 Y399.547
X239.874 Y399.588 Z-9.443
X239.844 Y399.625 Z-9.423
X239.818 Y399.658 Z-9.391
X239.798 Y399.683 Z-9.35
X239.786 Y399.698 Z-9.302
X239.781 Y399.703 Z-9.25
X240.094 Y399.953
Z-12.4 F250.
X240.098 Y399.948 Z-12.452 F500.
X240.111 Y399.932 Z-12.5
X240.131 Y399.907 Z-12.541
X240.156 Y399.875 Z-12.573
X240.186 Y399.837 Z-12.593
X240.219 Y399.797 Z-12.6
X240.343 Y399.64
G2 X240.312 Y399.359 I-0.156 J-0.125
X239.688 Y400.141 I-0.312 J0.391
X240.312 Y399.359 I0.312 J-0.391
X240.031 Y399.391 I-0.125 J0.156
G1 X239.906 Y399.547
X239.874 Y399.588 Z-12.593
X239.844 Y399.625 Z-12.573
X239.818 Y399.658 Z-12.541
X239.798 Y399.683 Z-12.5
X239.786 Y399.698 Z-12.452
X239.781 Y399.703 Z-12.4
X240.094 Y399.953
Z-15.55 F250.
X240.098 Y399.948 Z-15.602 F500.
X240.111 Y399.932 Z-15.65
X240.131 Y399.907 Z-15.691
X240.156 Y399.875 Z-15.723
X240.186 Y399.837 Z-15.743
X240.219 Y399.797 Z-15.75
X240.343 Y399.64
G2 X240.312 Y399.359 I-0.156 J-0.125
X239.688 Y400.141 I-0.312 J0.391
X240.312 Y399.359 I0.312 J-0.391
X240.031 Y399.391 I-0.125 J0.156
G1 X239.906 Y399.547
X239.874 Y399.588 Z-15.743
X239.844 Y399.625 Z-15.723
X239.818 Y399.658 Z-15.691
X239.798 Y399.683 Z-15.65
X239.786 Y399.698 Z-15.602
X239.781 Y399.703 Z-15.55
X240.094 Y399.953
Z-18.7 F250.
X240.098 Y399.948 Z-18.752 F500.
X240.111 Y399.932 Z-18.8
X240.131 Y399.907 Z-18.841
X240.156 Y399.875 Z-18.873
X240.186 Y399.837 Z-18.893
X240.219 Y399.797 Z-18.9
X240.343 Y399.64
G2 X240.312 Y399.359 I-0.156 J-0.125
X239.688 Y400.141 I-0.312 J0.391
X240.312 Y399.359 I0.312 J-0.391
X240.031 Y399.391 I-0.125 J0.156
G1 X239.906 Y399.547
X239.874 Y399.588 Z-18.893
X239.844 Y399.625 Z-18.873
X239.818 Y399.658 Z-18.841
X239.798 Y399.683 Z-18.8
X239.786 Y399.698 Z-18.752
X239.781 Y399.703 Z-18.7
X240.094 Y399.953
Z-21.8 F250.
X240.098 Y399.948 Z-21.852 F500.
X240.111 Y399.932 Z-21.9
X240.131 Y399.907 Z-21.941
X240.156 Y399.875 Z-21.973
X240.186 Y399.837 Z-21.993
X240.219 Y399.797 Z-22.
X240.343 Y399.64
G2 X240.312 Y399.359 I-0.156 J-0.125
X239.688 Y400.141 I-0.312 J0.391
X240.312 Y399.359 I0.312 J-0.391
X240.031 Y399.391 I-0.125 J0.156
G1 X239.906 Y399.547
X239.874 Y399.588 Z-21.993
X239.844 Y399.625 Z-21.973
X239.818 Y399.658 Z-21.941
X239.798 Y399.683 Z-21.9
X239.786 Y399.698 Z-21.852
X239.781 Y399.703 Z-21.8
Z5.
X239.9 Y420.45
Z4.15 F250.
Z-2.95
G18 G2 X240.1 Z-3.15 I0.2 K0. F500.
G1 X240.3
G17 G2 X240.5 Y420.25 I0. J-0.2
X239.5 I-0.5 J0.
X240.5 I0.5 J0.
X240.3 Y420.05 I-0.2 J0.
G1 X240.1
G18 G3 X239.9 Z-2.95 I0. K0.2
G1 Y420.45
Z-6.1 F250.
G2 X240.1 Z-6.3 I0.2 K0. F500.
G1 X240.3
G17 G2 X240.5 Y420.25 I0. J-0.2
X239.5 I-0.5 J0.
X240.5 I0.5 J0.
X240.3 Y420.05 I-0.2 J0.
G1 X240.1
G18 G3 X239.9 Z-6.1 I0. K0.2
G1 Y420.45
Z-9.25 F250.
G2 X240.1 Z-9.45 I0.2 K0. F500.
G1 X240.3
G17 G2 X240.5 Y420.25 I0. J-0.2
X239.5 I-0.5 J0.
X240.5 I0.5 J0.
X240.3 Y420.05 I-0.2 J0.
G1 X240.1
G18 G3 X239.9 Z-9.25 I0. K0.2
G1 Y420.45
Z-12.4 F250.
G2 X240.1 Z-12.6 I0.2 K0. F500.
G1 X240.3
G17 G2 X240.5 Y420.25 I0. J-0.2
X239.5 I-0.5 J0.
X240.5 I0.5 J0.
X240.3 Y420.05 I-0.2 J0.
G1 X240.1
G18 G3 X239.9 Z-12.4 I0. K0.2
G1 Y420.45
Z-15.55 F250.
G2 X240.1 Z-15.75 I0.2 K0. F500.
G1 X240.3
G17 G2 X240.5 Y420.25 I0. J-0.2
X239.5 I-0.5 J0.
X240.5 I0.5 J0.
X240.3 Y420.05 I-0.2 J0.
G1 X240.1
G18 G3 X239.9 Z-15.55 I0. K0.2
G1 Y420.45
Z-18.7 F250.
G2 X240.1 Z-18.9 I0.2 K0. F500.
G1 X240.3
G17 G2 X240.5 Y420.25 I0. J-0.2
X239.5 I-0.5 J0.
X240.5 I0.5 J0.
X240.3 Y420.05 I-0.2 J0.
G1 X240.1
G18 G3 X239.9 Z-18.7 I0. K0.2
G1 Y420.45
Z-21.8 F250.
G2 X240.1 Z-22. I0.2 K0. F500.
G1 X240.3
G17 G2 X240.5 Y420.25 I0. J-0.2
X239.5 I-0.5 J0.
X240.5 I0.5 J0.
X240.3 Y420.05 I-0.2 J0.
G1 X240.1
G18 G3 X239.9 Z-21.8 I0. K0.2
G1 Z15.
G17
(WHEN USING FUSION 360 FOR PERSONAL USE, THE FEEDRATE OF)
(RAPID MOVES IS REDUCED TO MATCH THE FEEDRATE OF CUTTING)
(MOVES, WHICH CAN INCREASE MACHINING TIME. UNRESTRICTED RAPID)
(MOVES ARE AVAILABLE WITH A FUSION 360 SUBSCRIPTION.)

(2D POCKET1 3)
G0 X237.005 Y410.032
G1 Z15. F500.
Z5.
Z4. F250.
Z-1.4
X236.988 Y410.008 Z-1.585
X236.934 Y409.942 Z-1.753
X236.886 Y409.896 Z-1.819
X236.833 Y409.857 Z-1.885
X236.76 Y409.815 Z-1.928
X236.682 Y409.784 Z-1.971
X236.592 Y409.763 Z-1.985
X236.5 Y409.756 Z-2.
X209.991 F500.
G2 X209.756 Y409.991 I0. J0.235
G1 Y410.009
G2 X209.991 Y410.244 I0.235 J0.
G1 X240.009
G2 X240.244 Y410.009 I0. J-0.235
G1 Y409.991
G2 X240.009 Y409.756 I-0.235 J0.
G1 X236.5
G3 X233.875 Y408.006 I0. J-2.844
G2 X231.25 Y406.256 I-2.625 J1.094
G1 X206.569
G2 X206.256 Y406.569 I0. J0.313
G1 Y413.431
G2 X206.569 Y413.744 I0.313 J0.
G1 X243.431
G2 X243.744 Y413.431 I0. J-0.313
G1 Y406.569
G2 X243.431 Y406.256 I-0.313 J0.
G1 X231.25
G3 X228.62 Y404.503 I0. J-2.849
G2 X225.991 Y402.75 I-2.629 J1.096
G1 X213.5
X206.5
X204.688
G3 X202.427 Y401.721 I0. J-3.
G2 X201.697 Y401.697 I-0.377 J0.328
X201.722 Y402.427 I0.353 J0.353
G3 X202.75 Y404.688 I-1.972 J2.261
G1 Y415.312
G3 X201.722 Y417.573 I-3. J0.
G2 X201.697 Y418.303 I0.328 J0.377
X202.427 Y418.279 I0.353 J-0.353
G3 X204.688 Y417.25 I2.261 J1.971
G1 X245.312
G3 X247.573 Y418.279 I0. J3.
G2 X248.303 Y418.303 I0.377 J-0.328
X248.278 Y417.573 I-0.353 J-0.353
G3 X247.25 Y415.312 I1.972 J-2.261
G1 Y404.688
G3 X248.278 Y402.427 I3. J0.
G2 X248.303 Y401.697 I-0.328 J-0.377
X247.573 Y401.721 I-0.353 J0.353
G3 X245.312 Y402.75 I-2.261 J-1.971
G1 X225.991
G2 X225.769 Y403.251 I0. J0.3
G1 X227.09 Y404.709
X227.125 Y404.742
X227.164 Y404.768
X236.428 Y410.047
X236.874 Y410.199
X236.913 Y410.205
X236.952 Y410.197
X236.985 Y410.176
X237.01 Y410.145
X237.022 Y410.108
X237.02 Y410.068
X237.005 Y410.032
Z-3.4 F250.
X236.988 Y410.008 Z-3.585
X236.934 Y409.942 Z-3.753
X236.886 Y409.896 Z-3.819
X236.833 Y409.857 Z-3.885
X236.76 Y409.815 Z-3.928
X236.682 Y409.784 Z-3.971
X236.592 Y409.763 Z-3.985
X236.5 Y409.756 Z-4.
X209.991 F500.
G2 X209.756 Y409.991 I0. J0.235
G1 Y410.009
G2 X209.991 Y410.244 I0.235 J0.
G1 X240.009
G2 X240.244 Y410.009 I0. J-0.235
G1 Y409.991
G2 X240.009 Y409.756 I-0.235 J0.
G1 X236.5
G3 X233.875 Y408.006 I0. J-2.844
G2 X231.25 Y406.256 I-2.625 J1.094
G1 X206.569
G2 X206.256 Y406.569 I0. J0.313
G1 Y413.431
G2 X206.569 Y413.744 I0.313 J0.
G1 X243.431
G2 X243.744 Y413.431 I0. J-0.313
G1 Y406.569
G2 X243.431 Y406.256 I-0.313 J0.
G1 X231.25
G3 X228.62 Y404.503 I0. J-2.849
G2 X225.991 Y402.75 I-2.629 J1.096
G1 X213.5
X206.5
X204.688
G3 X202.427 Y401.721 I0. J-3.
G2 X201.697 Y401.697 I-0.377 J0.328
X201.722 Y402.427 I0.353 J0.353
G3 X202.75 Y404.688 I-1.972 J2.261
G1 Y415.312
G3 X201.722 Y417.573 I-3. J0.
G2 X201.697 Y418.303 I0.328 J0.377
X202.427 Y418.279 I0.353 J-0.353
G3 X204.688 Y417.25 I2.261 J1.971
G1 X245.312
G3 X247.573 Y418.279 I0. J3.
G2 X248.303 Y418.303 I0.377 J-0.328
X248.278 Y417.573 I-0.353 J-0.353
G3 X247.25 Y415.312 I1.972 J-2.261
G1 Y404.688
G3 X248.278 Y402.427 I3. J0.
G2 X248.303 Y401.697 I-0.328 J-0.377
X247.573 Y401.721 I-0.353 J0.353
G3 X245.312 Y402.75 I-2.261 J-1.971
G1 X225.991
X225.899 Y402.757 Z-3.985
X225.809 Y402.778 Z-3.971
X225.731 Y402.809 Z-3.928
X225.658 Y402.851 Z-3.885
X225.605 Y402.89 Z-3.819
X225.557 Y402.936 Z-3.753
X225.503 Y403.001 Z-3.585
X225.486 Y403.026 Z-3.4
Z15.
(WHEN USING FUSION 360 FOR PERSONAL USE, THE FEEDRATE OF)
(RAPID MOVES IS REDUCED TO MATCH THE FEEDRATE OF CUTTING)
(MOVES, WHICH CAN INCREASE MACHINING TIME. UNRESTRICTED RAPID)
(MOVES ARE AVAILABLE WITH A FUSION 360 SUBSCRIPTION.)

(2D CONTOUR1 5)
G0 X327.529 Y391.977
G1 Z15. F500.
Z5.
Z4.15 F250.
Z-2.95
G18 G2 X327.729 Z-3.15 I0.2 K0. F500.
G1 X327.929
G17 G2 X328.129 Y391.777 I0. J-0.2
X327.129 I-0.5 J0.
X328.129 I0.5 J0.
X327.929 Y391.577 I-0.2 J0.
G1 X327.729
G18 G3 X327.529 Z-2.95 I0. K0.2
G1 Y391.977
Z-6.1 F250.
G2 X327.729 Z-6.3 I0.2 K0. F500.
G1 X327.929
G17 G2 X328.129 Y391.777 I0. J-0.2
X327.129 I-0.5 J0.
X328.129 I0.5 J0.
X327.929 Y391.577 I-0.2 J0.
G1 X327.729
G18 G3 X327.529 Z-6.1 I0. K0.2
G1 Y391.977
Z-9.25 F250.
G2 X327.729 Z-9.45 I0.2 K0. F500.
G1 X327.929
G17 G2 X328.129 Y391.777 I0. J-0.2
X327.129 I-0.5 J0.
X328.129 I0.5 J0.
X327.929 Y391.577 I-0.2 J0.
G1 X327.729
G18 G3 X327.529 Z-9.25 I0. K0.2
G1 Y391.977
Z-12.4 F250.
G2 X327.729 Z-12.6 I0.2 K0. F500.
G1 X327.929
G17 G2 X328.129 Y391.777 I0. J-0.2
X327.129 I-0.5 J0.
X328.129 I0.5 J0.
X327.929 Y391.577 I-0.2 J0.
G1 X327.729
G18 G3 X327.529 Z-12.4 I0. K0.2
G1 Y391.977
Z-15.55 F250.
G2 X327.729 Z-15.75 I0.2 K0. F500.
G1 X327.929
G17 G2 X328.129 Y391.777 I0. J-0.2
X327.129 I-0.5 J0.
X328.129 I0.5 J0.
X327.929 Y391.577 I-0.2 J0.
G1 X327.729
G18 G3 X327.529 Z-15.55 I0. K0.2
G1 Y391.977
Z-18.7 F250.
G2 X327.729 Z-18.9 I0.2 K0. F500.
G1 X327.929
G17 G2 X328.129 Y391.777 I0. J-0.2
X327.129 I-0.5 J0.
X328.129 I0.5 J0.
X327.929 Y391.577 I-0.2 J0.
G1 X327.729
G18 G3 X327.529 Z-18.7 I0. K0.2
G1 Y391.977
Z-21.8 F250.
G2 X327.729 Z-22. I0.2 K0. F500.
G1 X327.929
G17 G2 X328.129 Y391.777 I0. J-0.2
X327.129 I-0.5 J0.
X328.129 I0.5 J0.
X327.929 Y391.577 I-0.2 J0.
G1 X327.729
G18 G3 X327.529 Z-21.8 I0. K0.2
G1 Z5.
X315.617 Y375.412
Z4.15 F250.
Z-2.95
X315.622 Y375.408 Z-3.002 F500.
X315.638 Y375.397 Z-3.05
X315.664 Y375.378 Z-3.091
X315.698 Y375.354 Z-3.123
X315.737 Y375.325 Z-3.143
X315.779 Y375.295 Z-3.15
X315.94 Y375.177
G17 G2 X315.985 Y374.898 I-0.118 J-0.162
X315.175 Y375.486 I-0.405 J0.294
X315.985 Y374.898 I0.405 J-0.294
X315.705 Y374.854 I-0.162 J0.118
G1 X315.544 Y374.971
X315.502 Y375.002 Z-3.143
X315.463 Y375.03 Z-3.123
X315.429 Y375.054 Z-3.091
X315.403 Y375.073 Z-3.05
X315.387 Y375.085 Z-3.002
X315.382 Y375.089 Z-2.95
X315.617 Y375.412
Z-6.1 F250.
X315.622 Y375.408 Z-6.152 F500.
X315.638 Y375.397 Z-6.2
X315.664 Y375.378 Z-6.241
X315.698 Y375.354 Z-6.273
X315.737 Y375.325 Z-6.293
X315.779 Y375.295 Z-6.3
X315.94 Y375.177
G2 X315.985 Y374.898 I-0.118 J-0.162
X315.175 Y375.486 I-0.405 J0.294
X315.985 Y374.898 I0.405 J-0.294
X315.705 Y374.854 I-0.162 J0.118
G1 X315.544 Y374.971
X315.502 Y375.002 Z-6.293
X315.463 Y375.03 Z-6.273
X315.429 Y375.054 Z-6.241
X315.403 Y375.073 Z-6.2
X315.387 Y375.085 Z-6.152
X315.382 Y375.089 Z-6.1
X315.617 Y375.412
Z-9.25 F250.
X315.622 Y375.408 Z-9.302 F500.
X315.638 Y375.397 Z-9.35
X315.664 Y375.378 Z-9.391
X315.698 Y375.354 Z-9.423
X315.737 Y375.325 Z-9.443
X315.779 Y375.295 Z-9.45
X315.94 Y375.177
G2 X315.985 Y374.898 I-0.118 J-0.162
X315.175 Y375.486 I-0.405 J0.294
X315.985 Y374.898 I0.405 J-0.294
X315.705 Y374.854 I-0.162 J0.118
G1 X315.544 Y374.971
X315.502 Y375.002 Z-9.443
X315.463 Y375.03 Z-9.423
X315.429 Y375.054 Z-9.391
X315.403 Y375.073 Z-9.35
X315.387 Y375.085 Z-9.302
X315.382 Y375.089 Z-9.25
X315.617 Y375.412
Z-12.4 F250.
X315.622 Y375.408 Z-12.452 F500.
X315.638 Y375.397 Z-12.5
X315.664 Y375.378 Z-12.541
X315.698 Y375.354 Z-12.573
X315.737 Y375.325 Z-12.593
X315.779 Y375.295 Z-12.6
X315.94 Y375.177
G2 X315.985 Y374.898 I-0.118 J-0.162
X315.175 Y375.486 I-0.405 J0.294
X315.985 Y374.898 I0.405 J-0.294
X315.705 Y374.854 I-0.162 J0.118
G1 X315.544 Y374.971
X315.502 Y375.002 Z-12.593
X315.463 Y375.03 Z-12.573
X315.429 Y375.054 Z-12.541
X315.403 Y375.073 Z-12.5
X315.387 Y375.085 Z-12.452
X315.382 Y375.089 Z-12.4
X315.617 Y375.412
Z-15.55 F250.
X315.622 Y375.408 Z-15.602 F500.
X315.638 Y375.397 Z-15.65
X315.664 Y375.378 Z-15.691
X315.698 Y375.354 Z-15.723
X315.737 Y375.325 Z-15.743
X315.779 Y375.295 Z-15.75
X315.94 Y375.177
G2 X315.985 Y374.898 I-0.118 J-0.162
X315.175 Y375.486 I-0.405 J0.294
X315.985 Y374.898 I0.405 J-0.294
X315.705 Y374.854 I-0.162 J0.118
G1 X315.544 Y374.971
X315.502 Y375.002 Z-15.743
X315.463 Y375.03 Z-15.723
X315.429 Y375.054 Z-15.691
X315.403 Y375.073 Z-15.65
X315.387 Y375.085 Z-15.602
X315.382 Y375.089 Z-15.55
X315.617 Y375.412
Z-18.7 F250.
X315.622 Y375.408 Z-18.752 F500.
X315.638 Y375.397 Z-18.8
X315.664 Y375.378 Z-18.841
X315.698 Y375.354 Z-18.873
X315.737 Y375.325 Z-18.893
X315.779 Y375.295 Z-18.9
X315.94 Y375.177
G2 X315.985 Y374.898 I-0.118 J-0.162
X315.175 Y375.486 I-0.405 J0.294
X315.985 Y374.898 I0.405 J-0.294
X315.705 Y374.854 I-0.162 J0.118
G1 X315.544 Y374.971
X315.502 Y375.002 Z-18.893
X315.463 Y375.03 Z-18.873
X315.429 Y375.054 Z-18.841
X315.403 Y375.073 Z-18.8
X315.387 Y375.085 Z-18.752
X315.382 Y375.089 Z-18.7
X315.617 Y375.412
Z-21.8 F250.
X315.622 Y375.408 Z-21.852 F500.
X315.638 Y375.397 Z-21.9
X315.664 Y375.378 Z-21.941
X315.698 Y375.354 Z-21.973
X315.737 Y375.325 Z-21.993
X315.779 Y375.295 Z-22.
X315.94 Y375.177
G2 X315.985 Y374.898 I-0.118 J-0.162
X315.175 Y375.486 I-0.405 J0.294
X315.985 Y374.898 I0.405 J-0.294
X315.705 Y374.854 I-0.162 J0.118
G1 X315.544 Y374.971
X315.502 Y375.002 Z-21.993
X315.463 Y375.03 Z-21.973
X315.429 Y375.054 Z-21.941
X315.403 Y375.073 Z-21.9
X315.387 Y375.085 Z-21.852
X315.382 Y375.089 Z-21.8
Z5.
X339.887 Y357.78
Z4.15 F250.
Z-2.95
X339.893 Y357.776 Z-3.002 F500.
X339.909 Y357.764 Z-3.05
X339.935 Y357.746 Z-3.091
X339.968 Y357.721 Z-3.123
X340.007 Y357.693 Z-3.143
X340.049 Y357.663 Z-3.15
X340.211 Y357.545
G2 X340.255 Y357.266 I-0.118 J-0.162
X339.446 Y357.853 I-0.404 J0.294
X340.255 Y357.266 I0.404 J-0.294
X339.976 Y357.221 I-0.162 J0.118
G1 X339.814 Y357.339
X339.772 Y357.369 Z-3.143
X339.733 Y357.398 Z-3.123
X339.7 Y357.422 Z-3.091
X339.674 Y357.441 Z-3.05
X339.658 Y357.453 Z-3.002
X339.652 Y357.457 Z-2.95
X339.887 Y357.78
Z-6.1 F250.
X339.893 Y357.776 Z-6.152 F500.
X339.909 Y357.764 Z-6.2
X339.935 Y357.746 Z-6.241
X339.968 Y357.721 Z-6.273
X340.007 Y357.693 Z-6.293
X340.049 Y357.663 Z-6.3
X340.211 Y357.545
G2 X340.255 Y357.266 I-0.118 J-0.162
X339.446 Y357.853 I-0.404 J0.294
X340.255 Y357.266 I0.404 J-0.294
X339.976 Y357.221 I-0.162 J0.118
G1 X339.814 Y357.339
X339.772 Y357.369 Z-6.293
X339.733 Y357.398 Z-6.273
X339.7 Y357.422 Z-6.241
X339.674 Y357.441 Z-6.2
X339.658 Y357.453 Z-6.152
X339.652 Y357.457 Z-6.1
X339.887 Y357.78
Z-9.25 F250.
X339.893 Y357.776 Z-9.302 F500.
X339.909 Y357.764 Z-9.35
X339.935 Y357.746 Z-9.391
X339.968 Y357.721 Z-9.423
X340.007 Y357.693 Z-9.443
X340.049 Y357.663 Z-9.45
X340.211 Y357.545
G2 X340.255 Y357.266 I-0.118 J-0.162
X339.446 Y357.853 I-0.404 J0.294
X340.255 Y357.266 I0.404 J-0.294
X339.976 Y357.221 I-0.162 J0.118
G1 X339.814 Y357.339
X339.772 Y357.369 Z-9.443
X339.733 Y357.398 Z-9.423
X339.7 Y357.422 Z-9.391
X339.674 Y357.441 Z-9.35
X339.658 Y357.453 Z-9.302
X339.652 Y357.457 Z-9.25
X339.887 Y357.78
Z-12.4 F250.
X339.893 Y357.776 Z-12.452 F500.
X339.909 Y357.764 Z-12.5
X339.935 Y357.746 Z-12.541
X339.968 Y357.721 Z-12.573
X340.007 Y357.693 Z-12.593
X340.049 Y357.663 Z-12.6
X340.211 Y357.545
G2 X340.255 Y357.266 I-0.118 J-0.162
X339.446 Y357.853 I-0.404 J0.294
X340.255 Y357.266 I0.404 J-0.294
X339.976 Y357.221 I-0.162 J0.118
G1 X339.814 Y357.339
X339.772 Y357.369 Z-12.593
X339.733 Y357.398 Z-12.573
X339.7 Y357.422 Z-12.541
X339.674 Y357.441 Z-12.5
X339.658 Y357.453 Z-12.452
X339.652 Y357.457 Z-12.4
X339.887 Y357.78
Z-15.55 F250.
X339.893 Y357.776 Z-15.602 F500.
X339.909 Y357.764 Z-15.65
X339.935 Y357.746 Z-15.691
X339.968 Y357.721 Z-15.723
X340.007 Y357.693 Z-15.743
X340.049 Y357.663 Z-15.75
X340.211 Y357.545
G2 X340.255 Y357.266 I-0.118 J-0.162
X339.446 Y357.853 I-0.404 J0.294
X340.255 Y357.266 I0.404 J-0.294
X339.976 Y357.221 I-0.162 J0.118
G1 X339.814 Y357.339
X339.772 Y357.369 Z-15.743
X339.733 Y357.398 Z-15.723
X339.7 Y357.422 Z-15.691
X339.674 Y357.441 Z-15.65
X339.658 Y357.453 Z-15.602
X339.652 Y357.457 Z-15.55
X339.887 Y357.78
Z-18.7 F250.
X339.893 Y357.776 Z-18.752 F500.
X339.909 Y357.764 Z-18.8
X339.935 Y357.746 Z-18.841
X339.968 Y357.721 Z-18.873
X340.007 Y357.693 Z-18.893
X340.049 Y357.663 Z-18.9
X340.211 Y357.545
G2 X340.255 Y357.266 I-0.118 J-0.162
X339.446 Y357.853 I-0.404 J0.294
X340.255 Y357.266 I0.404 J-0.294
X339.976 Y357.221 I-0.162 J0.118
G1 X339.814 Y357.339
X339.772 Y357.369 Z-18.893
X339.733 Y357.398 Z-18.873
X339.7 Y357.422 Z-18.841
X339.674 Y357.441 Z-18.8
X339.658 Y357.453 Z-18.752
X339.652 Y357.457 Z-18.7
X339.887 Y357.78
Z-21.8 F250.
X339.893 Y357.776 Z-21.852 F500.
X339.909 Y357.764 Z-21.9
X339.935 Y357.746 Z-21.941
X339.968 Y357.721 Z-21.973
X340.007 Y357.693 Z-21.993
X340.049 Y357.663 Z-22.
X340.211 Y357.545
G2 X340.255 Y357.266 I-0.118 J-0.162
X339.446 Y357.853 I-0.404 J0.294
X340.255 Y357.266 I0.404 J-0.294
X339.976 Y357.221 I-0.162 J0.118
G1 X339.814 Y357.339
X339.772 Y357.369 Z-21.993
X339.733 Y357.398 Z-21.973
X339.7 Y357.422 Z-21.941
X339.674 Y357.441 Z-21.9
X339.658 Y357.453 Z-21.852
X339.652 Y357.457 Z-21.8
Z5.
X351.937 Y374.364
Z4.15 F250.
Z-2.95
X351.942 Y374.36 Z-3.002 F500.
X351.958 Y374.349 Z-3.05
X351.984 Y374.33 Z-3.091
X352.018 Y374.306 Z-3.123
X352.057 Y374.277 Z-3.143
X352.098 Y374.247 Z-3.15
X352.26 Y374.129
G2 X352.305 Y373.85 I-0.118 J-0.162
X351.496 Y374.437 I-0.404 J0.294
X352.305 Y373.85 I0.404 J-0.294
X352.025 Y373.806 I-0.162 J0.118
G1 X351.863 Y373.923
X351.822 Y373.954 Z-3.143
X351.783 Y373.982 Z-3.123
X351.749 Y374.006 Z-3.091
X351.723 Y374.025 Z-3.05
X351.707 Y374.037 Z-3.002
X351.702 Y374.041 Z-2.95
X351.937 Y374.364
Z-6.1 F250.
X351.942 Y374.36 Z-6.152 F500.
X351.958 Y374.349 Z-6.2
X351.984 Y374.33 Z-6.241
X352.018 Y374.306 Z-6.273
X352.057 Y374.277 Z-6.293
X352.098 Y374.247 Z-6.3
X352.26 Y374.129
G2 X352.305 Y373.85 I-0.118 J-0.162
X351.496 Y374.437 I-0.404 J0.294
X352.305 Y373.85 I0.404 J-0.294
X352.025 Y373.806 I-0.162 J0.118
G1 X351.863 Y373.923
X351.822 Y373.954 Z-6.293
X351.783 Y373.982 Z-6.273
X351.749 Y374.006 Z-6.241
X351.723 Y374.025 Z-6.2
X351.707 Y374.037 Z-6.152
X351.702 Y374.041 Z-6.1
X351.937 Y374.364
Z-9.25 F250.
X351.942 Y374.36 Z-9.302 F500.
X351.958 Y374.349 Z-9.35
X351.984 Y374.33 Z-9.391
X352.018 Y374.306 Z-9.423
X352.057 Y374.277 Z-9.443
X352.098 Y374.247 Z-9.45
X352.26 Y374.129
G2 X352.305 Y373.85 I-0.118 J-0.162
X351.496 Y374.437 I-0.404 J0.294
X352.305 Y373.85 I0.404 J-0.294
X352.025 Y373.806 I-0.162 J0.118
G1 X351.863 Y373.923
X351.822 Y373.954 Z-9.443
X351.783 Y373.982 Z-9.423
X351.749 Y374.006 Z-9.391
X351.723 Y374.025 Z-9.35
X351.707 Y374.037 Z-9.302
X351.702 Y374.041 Z-9.25
X351.937 Y374.364
Z-12.4 F250.
X351.942 Y374.36 Z-12.452 F500.
X351.958 Y374.349 Z-12.5
X351.984 Y374.33 Z-12.541
X352.018 Y374.306 Z-12.573
X352.057 Y374.277 Z-12.593
X352.098 Y374.247 Z-12.6
X352.26 Y374.129
G2 X352.305 Y373.85 I-0.118 J-0.162
X351.496 Y374.437 I-0.404 J0.294
X352.305 Y373.85 I0.404 J-0.294
X352.025 Y373.806 I-0.162 J0.118
G1 X351.863 Y373.923
X351.822 Y373.954 Z-12.593
X351.783 Y373.982 Z-12.573
X351.749 Y374.006 Z-12.541
X351.723 Y374.025 Z-12.5
X351.707 Y374.037 Z-12.452
X351.702 Y374.041 Z-12.4
X351.937 Y374.364
Z-15.55 F250.
X351.942 Y374.36 Z-15.602 F500.
X351.958 Y374.349 Z-15.65
X351.984 Y374.33 Z-15.691
X352.018 Y374.306 Z-15.723
X352.057 Y374.277 Z-15.743
X352.098 Y374.247 Z-15.75
X352.26 Y374.129
G2 X352.305 Y373.85 I-0.118 J-0.162
X351.496 Y374.437 I-0.404 J0.294
X352.305 Y373.85 I0.404 J-0.294
X352.025 Y373.806 I-0.162 J0.118
G1 X351.863 Y373.923
X351.822 Y373.954 Z-15.743
X351.783 Y373.982 Z-15.723
X351.749 Y374.006 Z-15.691
X351.723 Y374.025 Z-15.65
X351.707 Y374.037 Z-15.602
X351.702 Y374.041 Z-15.55
X351.937 Y374.364
Z-18.7 F250.
X351.942 Y374.36 Z-18.752 F500.
X351.958 Y374.349 Z-18.8
X351.984 Y374.33 Z-18.841
X352.018 Y374.306 Z-18.873
X352.057 Y374.277 Z-18.893
X352.098 Y374.247 Z-18.9
X352.26 Y374.129
G2 X352.305 Y373.85 I-0.118 J-0.162
X351.496 Y374.437 I-0.404 J0.294
X352.305 Y373.85 I0.404 J-0.294
X352.025 Y373.806 I-0.162 J0.118
G1 X351.863 Y373.923
X351.822 Y373.954 Z-18.893
X351.783 Y373.982 Z-18.873
X351.749 Y374.006 Z-18.841
X351.723 Y374.025 Z-18.8
X351.707 Y374.037 Z-18.752
X351.702 Y374.041 Z-18.7
X351.937 Y374.364
Z-21.8 F250.
X351.942 Y374.36 Z-21.852 F500.
X351.958 Y374.349 Z-21.9
X351.984 Y374.33 Z-21.941
X352.018 Y374.306 Z-21.973
X352.057 Y374.277 Z-21.993
X352.098 Y374.247 Z-22.
X352.26 Y374.129
G2 X352.305 Y373.85 I-0.118 J-0.162
X351.496 Y374.437 I-0.404 J0.294
X352.305 Y373.85 I0.404 J-0.294
X352.025 Y373.806 I-0.162 J0.118
G1 X351.863 Y373.923
X351.822 Y373.954 Z-21.993
X351.783 Y373.982 Z-21.973
X351.749 Y374.006 Z-21.941
X351.723 Y374.025 Z-21.9
X351.707 Y374.037 Z-21.852
X351.702 Y374.041 Z-21.8
Z15.
(WHEN USING FUSION 360 FOR PERSONAL USE, THE FEEDRATE OF)
(RAPID MOVES IS REDUCED TO MATCH THE FEEDRATE OF CUTTING)
(MOVES, WHICH CAN INCREASE MACHINING TIME. UNRESTRICTED RAPID)
(MOVES ARE AVAILABLE WITH A FUSION 360 SUBSCRIPTION.)

(2D POCKET1 4)
G0 X342.591 Y368.144
G1 Z15. F500.
Z5.
Z4. F250.
Z-1.4
X342.618 Y368.154 Z-1.585
X342.701 Y368.175 Z-1.753
X342.767 Y368.183 Z-1.819
X342.833 Y368.184 Z-1.885
X342.916 Y368.175 Z-1.928
X342.997 Y368.154 Z-1.971
X343.082 Y368.118 Z-1.985
X343.161 Y368.07 Z-2.
X343.162 Y368.069 F500.
G3 X344.573 Y367.071 I39.043 J53.744
G2 X345.985 Y366.073 I-37.632 J-54.742
X345.698 Y365.678 I-0.144 J-0.198
G1 X321.495 Y383.263
G2 X321.782 Y383.658 I0.143 J0.197
G1 X343.161 Y368.07
G3 X346.357 Y367.939 I1.695 J2.325
G2 X349.552 Y367.809 I1.5 J-2.465
G1 X350.852 Y366.864
G2 X350.922 Y366.427 I-0.184 J-0.253
G1 X346.888 Y360.875
G2 X346.451 Y360.805 I-0.253 J0.184
G1 X316.629 Y382.473
G2 X316.559 Y382.91 I0.184 J0.253
G1 X320.593 Y388.462
G2 X321.03 Y388.531 I0.253 J-0.184
G1 X349.552 Y367.809
G3 X352.834 Y367.431 I1.976 J2.719
G2 X356.084 Y368.024 I2.961 J-7.02
G3 X356.868 Y368.098 I0.114 J2.998
G2 X357.474 Y367.689 I0.112 J-0.487
X357.024 Y367.112 I-0.494 J-0.078
G3 X354.863 Y365.887 I0.266 J-2.988
G1 X348.619 Y357.292
G3 X348.122 Y354.859 I2.427 J-1.763
G2 X347.713 Y354.253 I-0.487 J-0.112
X347.136 Y354.703 I-0.078 J0.494
G3 X345.911 Y356.864 I-2.988 J-0.266
G1 X344.445 Y357.929
X338.782 Y362.043
X320.175 Y375.562
X314.513 Y379.677
X313.046 Y380.742
G3 X310.612 Y381.239 I-1.763 J-2.427
G2 X310.006 Y381.648 I-0.112 J0.487
X310.456 Y382.224 I0.494 J0.078
G3 X312.617 Y383.449 I-0.266 J2.988
G1 X318.862 Y392.044
G3 X319.359 Y394.478 I-2.427 J1.763
G2 X319.768 Y395.084 I0.487 J0.112
X320.344 Y394.634 I0.078 J-0.494
G3 X321.569 Y392.473 I2.988 J0.266
G1 X323.035 Y391.408
X328.697 Y387.293
X347.306 Y373.774
X352.969 Y369.66
X354.435 Y368.595
G3 X356.084 Y368.024 I1.763 J2.427
G1 X356.12 Y368.016
X356.151 Y367.997
X356.173 Y367.968
X356.184 Y367.933
X356.183 Y367.897
X356.169 Y367.863
X356.144 Y367.836
X356.112 Y367.819
X355.758 Y367.713
X343.051 Y367.826
X342.605 Y367.93
X342.568 Y367.946
X342.539 Y367.975
X342.522 Y368.011
X342.519 Y368.052
X342.531 Y368.091
X342.556 Y368.123
X342.591 Y368.144
Z-3.4 F250.
X342.618 Y368.154 Z-3.585
X342.701 Y368.175 Z-3.753
X342.767 Y368.183 Z-3.819
X342.833 Y368.184 Z-3.885
X342.916 Y368.175 Z-3.928
X342.997 Y368.154 Z-3.971
X343.082 Y368.118 Z-3.985
X343.161 Y368.07 Z-4.
X343.162 Y368.069 F500.
G3 X344.573 Y367.071 I39.043 J53.744
G2 X345.985 Y366.073 I-37.632 J-54.742
X345.698 Y365.678 I-0.144 J-0.198
G1 X321.495 Y383.263
G2 X321.782 Y383.658 I0.143 J0.197
G1 X343.161 Y368.07
G3 X346.357 Y367.939 I1.695 J2.325
G2 X349.552 Y367.809 I1.5 J-2.465
G1 X350.852 Y366.864
G2 X350.922 Y366.427 I-0.184 J-0.253
G1 X346.888 Y360.875
G2 X346.451 Y360.805 I-0.253 J0.184
G1 X316.629 Y382.473
G2 X316.559 Y382.91 I0.184 J0.253
G1 X320.593 Y388.462
G2 X321.03 Y388.531 I0.253 J-0.184
G1 X349.552 Y367.809
G3 X352.834 Y367.431 I1.976 J2.719
G2 X356.084 Y368.024 I2.961 J-7.02
G3 X356.868 Y368.098 I0.114 J2.998
G2 X357.474 Y367.689 I0.112 J-0.487
X357.024 Y367.112 I-0.494 J-0.078
G3 X354.863 Y365.887 I0.266 J-2.988
G1 X348.619 Y357.292
G3 X348.122 Y354.859 I2.427 J-1.763
G2 X347.713 Y354.253 I-0.487 J-0.112
X347.136 Y354.703 I-0.078 J0.494
G3 X345.911 Y356.864 I-2.988 J-0.266
G1 X344.445 Y357.929
X338.782 Y362.043
X320.175 Y375.562
X314.513 Y379.677
X313.046 Y380.742
G3 X310.612 Y381.239 I-1.763 J-2.427
G2 X310.006 Y381.648 I-0.112 J0.487
X310.456 Y382.224 I0.494 J0.078
G3 X312.617 Y383.449 I-0.266 J2.988
G1 X318.862 Y392.044
G3 X319.359 Y394.478 I-2.427 J1.763
G2 X319.768 Y395.084 I0.487 J0.112
X320.344 Y394.634 I0.078 J-0.494
G3 X321.569 Y392.473 I2.988 J0.266
G1 X323.035 Y391.408
X328.697 Y387.293
X347.306 Y373.774
X352.969 Y369.66
X354.435 Y368.595
G3 X356.084 Y368.024 I1.763 J2.427
G1 X356.27 Y368.023 Z-3.971
X356.437 Y368.031 Z-3.885
X356.569 Y368.045 Z-3.753
X356.653 Y368.057 Z-3.585
X356.682 Y368.061 Z-3.4
Z15.
(WHEN USING FUSION 360 FOR PERSONAL USE, THE FEEDRATE OF)
(RAPID MOVES IS REDUCED TO MATCH THE FEEDRATE OF CUTTING)
(MOVES, WHICH CAN INCREASE MACHINING TIME. UNRESTRICTED RAPID)
(MOVES ARE AVAILABLE WITH A FUSION 360 SUBSCRIPTION.)

(2D CONTOUR1 6)
G0 X395.675 Y264.894
G1 Z15. F500.
Z5.
Z4.15 F250.
Z-2.95
X395.682 Y264.896 Z-3.002 F500.
X395.701 Y264.903 Z-3.05
X395.731 Y264.912 Z-3.091
X395.771 Y264.925 Z-3.123
X395.816 Y264.94 Z-3.143
X395.866 Y264.956 Z-3.15
X396.056 Y265.018
G2 X396.308 Y264.889 I0.062 J-0.19
X395.356 Y264.58 I-0.476 J-0.155
X396.308 Y264.889 I0.476 J0.155
X396.179 Y264.637 I-0.19 J-0.062
G1 X395.989 Y264.576
X395.94 Y264.56 Z-3.143
X395.894 Y264.545 Z-3.123
X395.855 Y264.532 Z-3.091
X395.824 Y264.522 Z-3.05
X395.805 Y264.516 Z-3.002
X395.799 Y264.514 Z-2.95
X395.675 Y264.894
Z-6.1 F250.
X395.682 Y264.896 Z-6.152 F500.
X395.701 Y264.903 Z-6.2
X395.731 Y264.912 Z-6.241
X395.771 Y264.925 Z-6.273
X395.816 Y264.94 Z-6.293
X395.866 Y264.956 Z-6.3
X396.056 Y265.018
G2 X396.308 Y264.889 I0.062 J-0.19
X395.356 Y264.58 I-0.476 J-0.155
X396.308 Y264.889 I0.476 J0.155
X396.179 Y264.637 I-0.19 J-0.062
G1 X395.989 Y264.576
X395.94 Y264.56 Z-6.293
X395.894 Y264.545 Z-6.273
X395.855 Y264.532 Z-6.241
X395.824 Y264.522 Z-6.2
X395.805 Y264.516 Z-6.152
X395.799 Y264.514 Z-6.1
X395.675 Y264.894
Z-9.25 F250.
X395.682 Y264.896 Z-9.302 F500.
X395.701 Y264.903 Z-9.35
X395.731 Y264.912 Z-9.391
X395.771 Y264.925 Z-9.423
X395.816 Y264.94 Z-9.443
X395.866 Y264.956 Z-9.45
X396.056 Y265.018
G2 X396.308 Y264.889 I0.062 J-0.19
X395.356 Y264.58 I-0.476 J-0.155
X396.308 Y264.889 I0.476 J0.155
X396.179 Y264.637 I-0.19 J-0.062
G1 X395.989 Y264.576
X395.94 Y264.56 Z-9.443
X395.894 Y264.545 Z-9.423
X395.855 Y264.532 Z-9.391
X395.824 Y264.522 Z-9.35
X395.805 Y264.516 Z-9.302
X395.799 Y264.514 Z-9.25
X395.675 Y264.894
Z-12.4 F250.
X395.682 Y264.896 Z-12.452 F500.
X395.701 Y264.903 Z-12.5
X395.731 Y264.912 Z-12.541
X395.771 Y264.925 Z-12.573
X395.816 Y264.94 Z-12.593
X395.866 Y264.956 Z-12.6
X396.056 Y265.018
G2 X396.308 Y264.889 I0.062 J-0.19
X395.356 Y264.58 I-0.476 J-0.155
X396.308 Y264.889 I0.476 J0.155
X396.179 Y264.637 I-0.19 J-0.062
G1 X395.989 Y264.576
X395.94 Y264.56 Z-12.593
X395.894 Y264.545 Z-12.573
X395.855 Y264.532 Z-12.541
X395.824 Y264.522 Z-12.5
X395.805 Y264.516 Z-12.452
X395.799 Y264.514 Z-12.4
X395.675 Y264.894
Z-15.55 F250.
X395.682 Y264.896 Z-15.602 F500.
X395.701 Y264.903 Z-15.65
X395.731 Y264.912 Z-15.691
X395.771 Y264.925 Z-15.723
X395.816 Y264.94 Z-15.743
X395.866 Y264.956 Z-15.75
X396.056 Y265.018
G2 X396.308 Y264.889 I0.062 J-0.19
X395.356 Y264.58 I-0.476 J-0.155
X396.308 Y264.889 I0.476 J0.155
X396.179 Y264.637 I-0.19 J-0.062
G1 X395.989 Y264.576
X395.94 Y264.56 Z-15.743
X395.894 Y264.545 Z-15.723
X395.855 Y264.532 Z-15.691
X395.824 Y264.522 Z-15.65
X395.805 Y264.516 Z-15.602
X395.799 Y264.514 Z-15.55
X395.675 Y264.894
Z-18.7 F250.
X395.682 Y264.896 Z-18.752 F500.
X395.701 Y264.903 Z-18.8
X395.731 Y264.912 Z-18.841
X395.771 Y264.925 Z-18.873
X395.816 Y264.94 Z-18.893
X395.866 Y264.956 Z-18.9
X396.056 Y265.018
G2 X396.308 Y264.889 I0.062 J-0.19
X395.356 Y264.58 I-0.476 J-0.155
X396.308 Y264.889 I0.476 J0.155
X396.179 Y264.637 I-0.19 J-0.062
G1 X395.989 Y264.576
X395.94 Y264.56 Z-18.893
X395.894 Y264.545 Z-18.873
X395.855 Y264.532 Z-18.841
X395.824 Y264.522 Z-18.8
X395.805 Y264.516 Z-18.752
X395.799 Y264.514 Z-18.7
X395.675 Y264.894
Z-21.8 F250.
X395.682 Y264.896 Z-21.852 F500.
X395.701 Y264.903 Z-21.9
X395.731 Y264.912 Z-21.941
X395.771 Y264.925 Z-21.973
X395.816 Y264.94 Z-21.993
X395.866 Y264.956 Z-22.
X396.056 Y265.018
G2 X396.308 Y264.889 I0.062 J-0.19
X395.356 Y264.58 I-0.476 J-0.155
X396.308 Y264.889 I0.476 J0.155
X396.179 Y264.637 I-0.19 J-0.062
G1 X395.989 Y264.576
X395.94 Y264.56 Z-21.993
X395.894 Y264.545 Z-21.973
X395.855 Y264.532 Z-21.941
X395.824 Y264.522 Z-21.9
X395.805 Y264.516 Z-21.852
X395.799 Y264.514 Z-21.8
Z5.
X415.229 Y271.27
Z4.15 F250.
Z-2.95
G18 G2 X415.429 Z-3.15 I0.2 K0. F500.
G1 X415.629
G17 G2 X415.829 Y271.07 I0. J-0.2
X414.829 I-0.5 J0.
X415.829 I0.5 J0.
X415.629 Y270.87 I-0.2 J0.
G1 X415.429
G18 G3 X415.229 Z-2.95 I0. K0.2
G1 Y271.27
Z-6.1 F250.
G2 X415.429 Z-6.3 I0.2 K0. F500.
G1 X415.629
G17 G2 X415.829 Y271.07 I0. J-0.2
X414.829 I-0.5 J0.
X415.829 I0.5 J0.
X415.629 Y270.87 I-0.2 J0.
G1 X415.429
G18 G3 X415.229 Z-6.1 I0. K0.2
G1 Y271.27
Z-9.25 F250.
G2 X415.429 Z-9.45 I0.2 K0. F500.
G1 X415.629
G17 G2 X415.829 Y271.07 I0. J-0.2
X414.829 I-0.5 J0.
X415.829 I0.5 J0.
X415.629 Y270.87 I-0.2 J0.
G1 X415.429
G18 G3 X415.229 Z-9.25 I0. K0.2
G1 Y271.27
Z-12.4 F250.
G2 X415.429 Z-12.6 I0.2 K0. F500.
G1 X415.629
G17 G2 X415.829 Y271.07 I0. J-0.2
X414.829 I-0.5 J0.
X415.829 I0.5 J0.
X415.629 Y270.87 I-0.2 J0.
G1 X415.429
G18 G3 X415.229 Z-12.4 I0. K0.2
G1 Y271.27
Z-15.55 F250.
G2 X415.429 Z-15.75 I0.2 K0. F500.
G1 X415.629
G17 G2 X415.829 Y271.07 I0. J-0.2
X414.829 I-0.5 J0.
X415.829 I0.5 J0.
X415.629 Y270.87 I-0.2 J0.
G1 X415.429
G18 G3 X415.229 Z-15.55 I0. K0.2
G1 Y271.27
Z-18.7 F250.
G2 X415.429 Z-18.9 I0.2 K0. F500.
G1 X415.629
G17 G2 X415.829 Y271.07 I0. J-0.2
X414.829 I-0.5 J0.
X415.829 I0.5 J0.
X415.629 Y270.87 I-0.2 J0.
G1 X415.429
G18 G3 X415.229 Z-18.7 I0. K0.2
G1 Y271.27
Z-21.8 F250.
G2 X415.429 Z-22. I0.2 K0. F500.
G1 X415.629
G17 G2 X415.829 Y271.07 I0. J-0.2
X414.829 I-0.5 J0.
X415.829 I0.5 J0.
X415.629 Y270.87 I-0.2 J0.
G1 X415.429
G18 G3 X415.229 Z-21.8 I0. K0.2
G1 Z5.
X405.959 Y299.802
Z4.15 F250.
Z-2.95
G2 X406.159 Z-3.15 I0.2 K0. F500.
G1 X406.359
G17 G2 X406.559 Y299.602 I0. J-0.2
X405.559 I-0.5 J0.
X406.559 I0.5 J0.
X406.359 Y299.402 I-0.2 J0.
G1 X406.159
G18 G3 X405.959 Z-2.95 I0. K0.2
G1 Y299.802
Z-6.1 F250.
G2 X406.159 Z-6.3 I0.2 K0. F500.
G1 X406.359
G17 G2 X406.559 Y299.602 I0. J-0.2
X405.559 I-0.5 J0.
X406.559 I0.5 J0.
X406.359 Y299.402 I-0.2 J0.
G1 X406.159
G18 G3 X405.959 Z-6.1 I0. K0.2
G1 Y299.802
Z-9.25 F250.
G2 X406.159 Z-9.45 I0.2 K0. F500.
G1 X406.359
G17 G2 X406.559 Y299.602 I0. J-0.2
X405.559 I-0.5 J0.
X406.559 I0.5 J0.
X406.359 Y299.402 I-0.2 J0.
G1 X406.159
G18 G3 X405.959 Z-9.25 I0. K0.2
G1 Y299.802
Z-12.4 F250.
G2 X406.159 Z-12.6 I0.2 K0. F500.
G1 X406.359
G17 G2 X406.559 Y299.602 I0. J-0.2
X405.559 I-0.5 J0.
X406.559 I0.5 J0.
X406.359 Y299.402 I-0.2 J0.
G1 X406.159
G18 G3 X405.959 Z-12.4 I0. K0.2
G1 Y299.802
Z-15.55 F250.
G2 X406.159 Z-15.75 I0.2 K0. F500.
G1 X406.359
G17 G2 X406.559 Y299.602 I0. J-0.2
X405.559 I-0.5 J0.
X406.559 I0.5 J0.
X406.359 Y299.402 I-0.2 J0.
G1 X406.159
G18 G3 X405.959 Z-15.55 I0. K0.2
G1 Y299.802
Z-18.7 F250.
G2 X406.159 Z-18.9 I0.2 K0. F500.
G1 X406.359
G17 G2 X406.559 Y299.602 I0. J-0.2
X405.559 I-0.5 J0.
X406.559 I0.5 J0.
X406.359 Y299.402 I-0.2 J0.
G1 X406.159
G18 G3 X405.959 Z-18.7 I0. K0.2
G1 Y299.802
Z-21.8 F250.
G2 X406.159 Z-22. I0.2 K0. F500.
G1 X406.359
G17 G2 X406.559 Y299.602 I0. J-0.2
X405.559 I-0.5 J0.
X406.559 I0.5 J0.
X406.359 Y299.402 I-0.2 J0.
G1 X406.159
G18 G3 X405.959 Z-21.8 I0. K0.2
G1 Z5.
X386.405 Y293.426
Z4.15 F250.
Z-2.95
X386.412 Y293.428 Z-3.002 F500.
X386.431 Y293.434 Z-3.05
X386.461 Y293.444 Z-3.091
X386.5 Y293.457 Z-3.123
X386.546 Y293.472 Z-3.143
X386.595 Y293.488 Z-3.15
X386.785 Y293.55
G17 G2 X387.037 Y293.421 I0.062 J-0.19
X386.087 Y293.112 I-0.475 J-0.155
X387.037 Y293.421 I0.475 J0.155
X386.909 Y293.169 I-0.19 J-0.062
G1 X386.719 Y293.107
X386.67 Y293.091 Z-3.143
X386.624 Y293.076 Z-3.123
X386.584 Y293.064 Z-3.091
X386.554 Y293.054 Z-3.05
X386.535 Y293.048 Z-3.002
X386.529 Y293.046 Z-2.95
X386.405 Y293.426
Z-6.1 F250.
X386.412 Y293.428 Z-6.152 F500.
X386.431 Y293.434 Z-6.2
X386.461 Y293.444 Z-6.241
X386.5 Y293.457 Z-6.273
X386.546 Y293.472 Z-6.293
X386.595 Y293.488 Z-6.3
X386.785 Y293.55
G2 X387.037 Y293.421 I0.062 J-0.19
X386.087 Y293.112 I-0.475 J-0.155
X387.037 Y293.421 I0.475 J0.155
X386.909 Y293.169 I-0.19 J-0.062
G1 X386.719 Y293.107
X386.67 Y293.091 Z-6.293
X386.624 Y293.076 Z-6.273
X386.584 Y293.064 Z-6.241
X386.554 Y293.054 Z-6.2
X386.535 Y293.048 Z-6.152
X386.529 Y293.046 Z-6.1
X386.405 Y293.426
Z-9.25 F250.
X386.412 Y293.428 Z-9.302 F500.
X386.431 Y293.434 Z-9.35
X386.461 Y293.444 Z-9.391
X386.5 Y293.457 Z-9.423
X386.546 Y293.472 Z-9.443
X386.595 Y293.488 Z-9.45
X386.785 Y293.55
G2 X387.037 Y293.421 I0.062 J-0.19
X386.087 Y293.112 I-0.475 J-0.155
X387.037 Y293.421 I0.475 J0.155
X386.909 Y293.169 I-0.19 J-0.062
G1 X386.719 Y293.107
X386.67 Y293.091 Z-9.443
X386.624 Y293.076 Z-9.423
X386.584 Y293.064 Z-9.391
X386.554 Y293.054 Z-9.35
X386.535 Y293.048 Z-9.302
X386.529 Y293.046 Z-9.25
X386.405 Y293.426
Z-12.4 F250.
X386.412 Y293.428 Z-12.452 F500.
X386.431 Y293.434 Z-12.5
X386.461 Y293.444 Z-12.541
X386.5 Y293.457 Z-12.573
X386.546 Y293.472 Z-12.593
X386.595 Y293.488 Z-12.6
X386.785 Y293.55
G2 X387.037 Y293.421 I0.062 J-0.19
X386.087 Y293.112 I-0.475 J-0.155
X387.037 Y293.421 I0.475 J0.155
X386.909 Y293.169 I-0.19 J-0.062
G1 X386.719 Y293.107
X386.67 Y293.091 Z-12.593
X386.624 Y293.076 Z-12.573
X386.584 Y293.064 Z-12.541
X386.554 Y293.054 Z-12.5
X386.535 Y293.048 Z-12.452
X386.529 Y293.046 Z-12.4
X386.405 Y293.426
Z-15.55 F250.
X386.412 Y293.428 Z-15.602 F500.
X386.431 Y293.434 Z-15.65
X386.461 Y293.444 Z-15.691
X386.5 Y293.457 Z-15.723
X386.546 Y293.472 Z-15.743
X386.595 Y293.488 Z-15.75
X386.785 Y293.55
G2 X387.037 Y293.421 I0.062 J-0.19
X386.087 Y293.112 I-0.475 J-0.155
X387.037 Y293.421 I0.475 J0.155
X386.909 Y293.169 I-0.19 J-0.062
G1 X386.719 Y293.107
X386.67 Y293.091 Z-15.743
X386.624 Y293.076 Z-15.723
X386.584 Y293.064 Z-15.691
X386.554 Y293.054 Z-15.65
X386.535 Y293.048 Z-15.602
X386.529 Y293.046 Z-15.55
X386.405 Y293.426
Z-18.7 F250.
X386.412 Y293.428 Z-18.752 F500.
X386.431 Y293.434 Z-18.8
X386.461 Y293.444 Z-18.841
X386.5 Y293.457 Z-18.873
X386.546 Y293.472 Z-18.893
X386.595 Y293.488 Z-18.9
X386.785 Y293.55
G2 X387.037 Y293.421 I0.062 J-0.19
X386.087 Y293.112 I-0.475 J-0.155
X387.037 Y293.421 I0.475 J0.155
X386.909 Y293.169 I-0.19 J-0.062
G1 X386.719 Y293.107
X386.67 Y293.091 Z-18.893
X386.624 Y293.076 Z-18.873
X386.584 Y293.064 Z-18.841
X386.554 Y293.054 Z-18.8
X386.535 Y293.048 Z-18.752
X386.529 Y293.046 Z-18.7
X386.405 Y293.426
Z-21.8 F250.
X386.412 Y293.428 Z-21.852 F500.
X386.431 Y293.434 Z-21.9
X386.461 Y293.444 Z-21.941
X386.5 Y293.457 Z-21.973
X386.546 Y293.472 Z-21.993
X386.595 Y293.488 Z-22.
X386.785 Y293.55
G2 X387.037 Y293.421 I0.062 J-0.19
X386.087 Y293.112 I-0.475 J-0.155
X387.037 Y293.421 I0.475 J0.155
X386.909 Y293.169 I-0.19 J-0.062
G1 X386.719 Y293.107
X386.67 Y293.091 Z-21.993
X386.624 Y293.076 Z-21.973
X386.584 Y293.064 Z-21.941
X386.554 Y293.054 Z-21.9
X386.535 Y293.048 Z-21.852
X386.529 Y293.046 Z-21.8
Z15.
(WHEN USING FUSION 360 FOR PERSONAL USE, THE FEEDRATE OF)
(RAPID MOVES IS REDUCED TO MATCH THE FEEDRATE OF CUTTING)
(MOVES, WHICH CAN INCREASE MACHINING TIME. UNRESTRICTED RAPID)
(MOVES ARE AVAILABLE WITH A FUSION 360 SUBSCRIPTION.)

(2D POCKET1 5)
G0 X397.578 Y292.635
G1 Z15. F500.
Z5.
Z4. F250.
Z-1.4
X397.549 Y292.643 Z-1.585
X397.47 Y292.675 Z-1.753
X397.412 Y292.707 Z-1.819
X397.358 Y292.745 Z-1.885
X397.296 Y292.801 Z-1.928
X397.243 Y292.865 Z-1.971
X397.195 Y292.945 Z-1.985
X397.159 Y293.03 Z-2.
X396.091 Y296.319 F500.
G2 X396.555 Y296.47 I0.232 J0.075
G1 X405.815 Y267.969
G2 X405.664 Y267.673 I-0.224 J-0.073
G1 X405.648 Y267.668
G2 X405.351 Y267.819 I-0.073 J0.224
G1 X397.159 Y293.03
G3 X394.684 Y294.986 I-2.705 J-0.879
G2 X392.208 Y296.942 I0.229 J2.835
G1 X391.689 Y298.54
G2 X391.89 Y298.935 I0.298 J0.097
G1 X398.416 Y301.055
G2 X398.811 Y300.854 I0.097 J-0.298
G1 X410.202 Y265.796
G2 X410.001 Y265.402 I-0.298 J-0.097
G1 X403.474 Y263.282
G2 X403.08 Y263.483 I-0.097 J0.298
G1 X392.208 Y296.942
G3 X389.782 Y299.169 I-3.186 J-1.035
G2 X386.831 Y300.63 I1.633 J7.007
G3 X386.097 Y301.078 I-1.911 J-2.312
G2 X385.847 Y301.765 I0.196 J0.46
X386.55 Y301.967 I0.446 J-0.227
G3 X389.018 Y301.688 I1.541 J2.574
G1 X399.122 Y304.971
G3 X400.955 Y306.648 I-0.927 J2.853
G2 X401.642 Y306.897 I0.46 J-0.196
X401.843 Y306.195 I-0.227 J-0.445
G3 X401.564 Y303.726 I2.574 J-1.542
G1 X402.124 Y302.003
X404.287 Y295.346
X411.394 Y273.471
X413.558 Y266.814
X414.116 Y265.092
G3 X415.794 Y263.258 I2.854 J0.926
G2 X416.044 Y262.571 I-0.196 J-0.46
X415.341 Y262.369 I-0.446 J0.227
G3 X412.873 Y262.648 I-1.541 J-2.574
G1 X402.769 Y259.366
G3 X400.936 Y257.689 I0.927 J-2.853
G2 X400.25 Y257.44 I-0.46 J0.196
X400.048 Y258.142 I0.227 J0.445
G3 X400.327 Y260.61 I-2.574 J1.541
G1 X399.767 Y262.333
X397.604 Y268.991
X390.496 Y290.865
X388.333 Y297.522
X387.773 Y299.245
G3 X386.831 Y300.63 I-2.853 J-0.927
G1 X386.807 Y300.659
X386.794 Y300.694
X386.793 Y300.731
X386.806 Y300.767
X386.829 Y300.796
X386.862 Y300.815
X386.898 Y300.822
X386.935 Y300.816
X387.299 Y300.687
X397.393 Y293.163
X397.692 Y292.817
X397.712 Y292.782
X397.719 Y292.742
X397.711 Y292.702
X397.689 Y292.668
X397.657 Y292.644
X397.618 Y292.632
X397.578 Y292.635
Z-3.4 F250.
X397.549 Y292.643 Z-3.585
X397.47 Y292.675 Z-3.753
X397.412 Y292.707 Z-3.819
X397.358 Y292.745 Z-3.885
X397.296 Y292.801 Z-3.928
X397.243 Y292.865 Z-3.971
X397.195 Y292.945 Z-3.985
X397.159 Y293.03 Z-4.
X396.091 Y296.319 F500.
G2 X396.555 Y296.47 I0.232 J0.075
G1 X405.815 Y267.969
G2 X405.664 Y267.673 I-0.224 J-0.073
G1 X405.648 Y267.668
G2 X405.351 Y267.819 I-0.073 J0.224
G1 X397.159 Y293.03
G3 X394.684 Y294.986 I-2.705 J-0.879
G2 X392.208 Y296.942 I0.229 J2.835
G1 X391.689 Y298.54
G2 X391.89 Y298.935 I0.298 J0.097
G1 X398.416 Y301.055
G2 X398.811 Y300.854 I0.097 J-0.298
G1 X410.202 Y265.796
G2 X410.001 Y265.402 I-0.298 J-0.097
G1 X403.474 Y263.282
G2 X403.08 Y263.483 I-0.097 J0.298
G1 X392.208 Y296.942
G3 X389.782 Y299.169 I-3.186 J-1.035
G2 X386.831 Y300.63 I1.633 J7.007
G3 X386.097 Y301.078 I-1.911 J-2.312
G2 X385.847 Y301.765 I0.196 J0.46
X386.55 Y301.967 I0.446 J-0.227
G3 X389.018 Y301.688 I1.541 J2.574
G1 X399.122 Y304.971
G3 X400.955 Y306.648 I-0.927 J2.853
G2 X401.642 Y306.897 I0.46 J-0.196
X401.843 Y306.195 I-0.227 J-0.445
G3 X401.564 Y303.726 I2.574 J-1.542
G1 X402.124 Y302.003
X404.287 Y295.346
X411.394 Y273.471
X413.558 Y266.814
X414.116 Y265.092
G3 X415.794 Y263.258 I2.854 J0.926
G2 X416.044 Y262.571 I-0.196 J-0.46
X415.341 Y262.369 I-0.446 J0.227
G3 X412.873 Y262.648 I-1.541 J-2.574
G1 X402.769 Y259.366
G3 X400.936 Y257.689 I0.927 J-2.853
G2 X400.25 Y257.44 I-0.46 J0.196
X400.048 Y258.142 I0.227 J0.445
G3 X400.327 Y260.61 I-2.574 J1.541
G1 X399.767 Y262.333
X397.604 Y268.991
X390.496 Y290.865
X388.333 Y297.522
X387.773 Y299.245
G3 X386.831 Y300.63 I-2.853 J-0.927
G1 X386.685 Y300.744 Z-3.971
X386.547 Y300.839 Z-3.885
X386.434 Y300.908 Z-3.753
X386.36 Y300.95 Z-3.585
X386.334 Y300.964 Z-3.4
Z15.
(WHEN USING FUSION 360 FOR PERSONAL USE, THE FEEDRATE OF)
(RAPID MOVES IS REDUCED TO MATCH THE FEEDRATE OF CUTTING)
(MOVES, WHICH CAN INCREASE MACHINING TIME. UNRESTRICTED RAPID)
(MOVES ARE AVAILABLE WITH A FUSION 360 SUBSCRIPTION.)

(2D CONTOUR1 7)
G0 X395.799 Y185.486
G1 Z15. F500.
Z5.
Z4.15 F250.
Z-2.95
X395.805 Y185.484 Z-3.002 F500.
X395.824 Y185.478 Z-3.05
X395.855 Y185.468 Z-3.091
X395.894 Y185.455 Z-3.123
X395.94 Y185.44 Z-3.143
X395.989 Y185.424 Z-3.15
X396.179 Y185.363
G2 X396.308 Y185.111 I-0.062 J-0.19
X395.356 Y185.42 I-0.476 J0.155
X396.308 Y185.111 I0.476 J-0.155
X396.056 Y184.982 I-0.19 J0.062
G1 X395.866 Y185.044
X395.816 Y185.06 Z-3.143
X395.77 Y185.075 Z-3.123
X395.731 Y185.088 Z-3.091
X395.701 Y185.097 Z-3.05
X395.682 Y185.104 Z-3.002
X395.675 Y185.106 Z-2.95
X395.799 Y185.486
Z-6.1 F250.
X395.805 Y185.484 Z-6.152 F500.
X395.824 Y185.478 Z-6.2
X395.855 Y185.468 Z-6.241
X395.894 Y185.455 Z-6.273
X395.94 Y185.44 Z-6.293
X395.989 Y185.424 Z-6.3
X396.179 Y185.363
G2 X396.308 Y185.111 I-0.062 J-0.19
X395.356 Y185.42 I-0.476 J0.155
X396.308 Y185.111 I0.476 J-0.155
X396.056 Y184.982 I-0.19 J0.062
G1 X395.866 Y185.044
X395.816 Y185.06 Z-6.293
X395.77 Y185.075 Z-6.273
X395.731 Y185.088 Z-6.241
X395.701 Y185.097 Z-6.2
X395.682 Y185.104 Z-6.152
X395.675 Y185.106 Z-6.1
X395.799 Y185.486
Z-9.25 F250.
X395.805 Y185.484 Z-9.302 F500.
X395.824 Y185.478 Z-9.35
X395.855 Y185.468 Z-9.391
X395.894 Y185.455 Z-9.423
X395.94 Y185.44 Z-9.443
X395.989 Y185.424 Z-9.45
X396.179 Y185.363
G2 X396.308 Y185.111 I-0.062 J-0.19
X395.356 Y185.42 I-0.476 J0.155
X396.308 Y185.111 I0.476 J-0.155
X396.056 Y184.982 I-0.19 J0.062
G1 X395.866 Y185.044
X395.816 Y185.06 Z-9.443
X395.77 Y185.075 Z-9.423
X395.731 Y185.088 Z-9.391
X395.701 Y185.097 Z-9.35
X395.682 Y185.104 Z-9.302
X395.675 Y185.106 Z-9.25
X395.799 Y185.486
Z-12.4 F250.
X395.805 Y185.484 Z-12.452 F500.
X395.824 Y185.478 Z-12.5
X395.855 Y185.468 Z-12.541
X395.894 Y185.455 Z-12.573
X395.94 Y185.44 Z-12.593
X395.989 Y185.424 Z-12.6
X396.179 Y185.363
G2 X396.308 Y185.111 I-0.062 J-0.19
X395.356 Y185.42 I-0.476 J0.155
X396.308 Y185.111 I0.476 J-0.155
X396.056 Y184.982 I-0.19 J0.062
G1 X395.866 Y185.044
X395.816 Y185.06 Z-12.593
X395.77 Y185.075 Z-12.573
X395.731 Y185.088 Z-12.541
X395.701 Y185.097 Z-12.5
X395.682 Y185.104 Z-12.452
X395.675 Y185.106 Z-12.4
X395.799 Y185.486
Z-15.55 F250.
X395.805 Y185.484 Z-15.602 F500.
X395.824 Y185.478 Z-15.65
X395.855 Y185.468 Z-15.691
X395.894 Y185.455 Z-15.723
X395.94 Y185.44 Z-15.743
X395.989 Y185.424 Z-15.75
X396.179 Y185.363
G2 X396.308 Y185.111 I-0.062 J-0.19
X395.356 Y185.42 I-0.476 J0.155
X396.308 Y185.111 I0.476 J-0.155
X396.056 Y184.982 I-0.19 J0.062
G1 X395.866 Y185.044
X395.816 Y185.06 Z-15.743
X395.77 Y185.075 Z-15.723
X395.731 Y185.088 Z-15.691
X395.701 Y185.097 Z-15.65
X395.682 Y185.104 Z-15.602
X395.675 Y185.106 Z-15.55
X395.799 Y185.486
Z-18.7 F250.
X395.805 Y185.484 Z-18.752 F500.
X395.824 Y185.478 Z-18.8
X395.855 Y185.468 Z-18.841
X395.894 Y185.455 Z-18.873
X395.94 Y185.44 Z-18.893
X395.989 Y185.424 Z-18.9
X396.179 Y185.363
G2 X396.308 Y185.111 I-0.062 J-0.19
X395.356 Y185.42 I-0.476 J0.155
X396.308 Y185.111 I0.476 J-0.155
X396.056 Y184.982 I-0.19 J0.062
G1 X395.866 Y185.044
X395.816 Y185.06 Z-18.893
X395.77 Y185.075 Z-18.873
X395.731 Y185.088 Z-18.841
X395.701 Y185.097 Z-18.8
X395.682 Y185.104 Z-18.752
X395.675 Y185.106 Z-18.7
X395.799 Y185.486
Z-21.8 F250.
X395.805 Y185.484 Z-21.852 F500.
X395.824 Y185.478 Z-21.9
X395.855 Y185.468 Z-21.941
X395.894 Y185.455 Z-21.973
X395.94 Y185.44 Z-21.993
X395.989 Y185.424 Z-22.
X396.179 Y185.363
G2 X396.308 Y185.111 I-0.062 J-0.19
X395.356 Y185.42 I-0.476 J0.155
X396.308 Y185.111 I0.476 J-0.155
X396.056 Y184.982 I-0.19 J0.062
G1 X395.866 Y185.044
X395.816 Y185.06 Z-21.993
X395.77 Y185.075 Z-21.973
X395.731 Y185.088 Z-21.941
X395.701 Y185.097 Z-21.9
X395.682 Y185.104 Z-21.852
X395.675 Y185.106 Z-21.8
Z5.
X415.296 Y179.151
Z4.15 F250.
Z-2.95
X415.303 Y179.149 Z-3.002 F500.
X415.322 Y179.143 Z-3.05
X415.352 Y179.133 Z-3.091
X415.391 Y179.121 Z-3.123
X415.437 Y179.106 Z-3.143
X415.486 Y179.09 Z-3.15
X415.677 Y179.028
G2 X415.805 Y178.776 I-0.062 J-0.19
X414.854 Y179.085 I-0.475 J0.154
X415.805 Y178.776 I0.475 J-0.154
X415.553 Y178.647 I-0.19 J0.062
G1 X415.363 Y178.709
X415.314 Y178.725 Z-3.143
X415.268 Y178.74 Z-3.123
X415.228 Y178.753 Z-3.091
X415.198 Y178.763 Z-3.05
X415.179 Y178.769 Z-3.002
X415.173 Y178.771 Z-2.95
X415.296 Y179.151
Z-6.1 F250.
X415.303 Y179.149 Z-6.152 F500.
X415.322 Y179.143 Z-6.2
X415.352 Y179.133 Z-6.241
X415.391 Y179.121 Z-6.273
X415.437 Y179.106 Z-6.293
X415.486 Y179.09 Z-6.3
X415.677 Y179.028
G2 X415.805 Y178.776 I-0.062 J-0.19
X414.854 Y179.085 I-0.475 J0.154
X415.805 Y178.776 I0.475 J-0.154
X415.553 Y178.647 I-0.19 J0.062
G1 X415.363 Y178.709
X415.314 Y178.725 Z-6.293
X415.268 Y178.74 Z-6.273
X415.228 Y178.753 Z-6.241
X415.198 Y178.763 Z-6.2
X415.179 Y178.769 Z-6.152
X415.173 Y178.771 Z-6.1
X415.296 Y179.151
Z-9.25 F250.
X415.303 Y179.149 Z-9.302 F500.
X415.322 Y179.143 Z-9.35
X415.352 Y179.133 Z-9.391
X415.391 Y179.121 Z-9.423
X415.437 Y179.106 Z-9.443
X415.486 Y179.09 Z-9.45
X415.677 Y179.028
G2 X415.805 Y178.776 I-0.062 J-0.19
X414.854 Y179.085 I-0.475 J0.154
X415.805 Y178.776 I0.475 J-0.154
X415.553 Y178.647 I-0.19 J0.062
G1 X415.363 Y178.709
X415.314 Y178.725 Z-9.443
X415.268 Y178.74 Z-9.423
X415.228 Y178.753 Z-9.391
X415.198 Y178.763 Z-9.35
X415.179 Y178.769 Z-9.302
X415.173 Y178.771 Z-9.25
X415.296 Y179.151
Z-12.4 F250.
X415.303 Y179.149 Z-12.452 F500.
X415.322 Y179.143 Z-12.5
X415.352 Y179.133 Z-12.541
X415.391 Y179.121 Z-12.573
X415.437 Y179.106 Z-12.593
X415.486 Y179.09 Z-12.6
X415.677 Y179.028
G2 X415.805 Y178.776 I-0.062 J-0.19
X414.854 Y179.085 I-0.475 J0.154
X415.805 Y178.776 I0.475 J-0.154
X415.553 Y178.647 I-0.19 J0.062
G1 X415.363 Y178.709
X415.314 Y178.725 Z-12.593
X415.268 Y178.74 Z-12.573
X415.228 Y178.753 Z-12.541
X415.198 Y178.763 Z-12.5
X415.179 Y178.769 Z-12.452
X415.173 Y178.771 Z-12.4
X415.296 Y179.151
Z-15.55 F250.
X415.303 Y179.149 Z-15.602 F500.
X415.322 Y179.143 Z-15.65
X415.352 Y179.133 Z-15.691
X415.391 Y179.121 Z-15.723
X415.437 Y179.106 Z-15.743
X415.486 Y179.09 Z-15.75
X415.677 Y179.028
G2 X415.805 Y178.776 I-0.062 J-0.19
X414.854 Y179.085 I-0.475 J0.154
X415.805 Y178.776 I0.475 J-0.154
X415.553 Y178.647 I-0.19 J0.062
G1 X415.363 Y178.709
X415.314 Y178.725 Z-15.743
X415.268 Y178.74 Z-15.723
X415.228 Y178.753 Z-15.691
X415.198 Y178.763 Z-15.65
X415.179 Y178.769 Z-15.602
X415.173 Y178.771 Z-15.55
X415.296 Y179.151
Z-18.7 F250.
X415.303 Y179.149 Z-18.752 F500.
X415.322 Y179.143 Z-18.8
X415.352 Y179.133 Z-18.841
X415.391 Y179.121 Z-18.873
X415.437 Y179.106 Z-18.893
X415.486 Y179.09 Z-18.9
X415.677 Y179.028
G2 X415.805 Y178.776 I-0.062 J-0.19
X414.854 Y179.085 I-0.475 J0.154
X415.805 Y178.776 I0.475 J-0.154
X415.553 Y178.647 I-0.19 J0.062
G1 X415.363 Y178.709
X415.314 Y178.725 Z-18.893
X415.268 Y178.74 Z-18.873
X415.228 Y178.753 Z-18.841
X415.198 Y178.763 Z-18.8
X415.179 Y178.769 Z-18.752
X415.173 Y178.771 Z-18.7
X415.296 Y179.151
Z-21.8 F250.
X415.303 Y179.149 Z-21.852 F500.
X415.322 Y179.143 Z-21.9
X415.352 Y179.133 Z-21.941
X415.391 Y179.121 Z-21.973
X415.437 Y179.106 Z-21.993
X415.486 Y179.09 Z-22.
X415.677 Y179.028
G2 X415.805 Y178.776 I-0.062 J-0.19
X414.854 Y179.085 I-0.475 J0.154
X415.805 Y178.776 I0.475 J-0.154
X415.553 Y178.647 I-0.19 J0.062
G1 X415.363 Y178.709
X415.314 Y178.725 Z-21.993
X415.268 Y178.74 Z-21.973
X415.228 Y178.753 Z-21.941
X415.198 Y178.763 Z-21.9
X415.179 Y178.769 Z-21.852
X415.173 Y178.771 Z-21.8
Z5.
X406.026 Y150.619
Z4.15 F250.
Z-2.95
X406.032 Y150.617 Z-3.002 F500.
X406.051 Y150.611 Z-3.05
X406.081 Y150.601 Z-3.091
X406.121 Y150.589 Z-3.123
X406.167 Y150.574 Z-3.143
X406.216 Y150.558 Z-3.15
X406.406 Y150.496
G2 X406.535 Y150.244 I-0.062 J-0.19
X405.584 Y150.553 I-0.475 J0.154
X406.535 Y150.244 I0.475 J-0.154
X406.283 Y150.115 I-0.19 J0.062
G1 X406.092 Y150.177
X406.043 Y150.193 Z-3.143
X405.997 Y150.208 Z-3.123
X405.958 Y150.221 Z-3.091
X405.928 Y150.231 Z-3.05
X405.909 Y150.237 Z-3.002
X405.902 Y150.239 Z-2.95
X406.026 Y150.619
Z-6.1 F250.
X406.032 Y150.617 Z-6.152 F500.
X406.051 Y150.611 Z-6.2
X406.081 Y150.601 Z-6.241
X406.121 Y150.589 Z-6.273
X406.167 Y150.574 Z-6.293
X406.216 Y150.558 Z-6.3
X406.406 Y150.496
G2 X406.535 Y150.244 I-0.062 J-0.19
X405.584 Y150.553 I-0.475 J0.154
X406.535 Y150.244 I0.475 J-0.154
X406.283 Y150.115 I-0.19 J0.062
G1 X406.092 Y150.177
X406.043 Y150.193 Z-6.293
X405.997 Y150.208 Z-6.273
X405.958 Y150.221 Z-6.241
X405.928 Y150.231 Z-6.2
X405.909 Y150.237 Z-6.152
X405.902 Y150.239 Z-6.1
X406.026 Y150.619
Z-9.25 F250.
X406.032 Y150.617 Z-9.302 F500.
X406.051 Y150.611 Z-9.35
X406.081 Y150.601 Z-9.391
X406.121 Y150.589 Z-9.423
X406.167 Y150.574 Z-9.443
X406.216 Y150.558 Z-9.45
X406.406 Y150.496
G2 X406.535 Y150.244 I-0.062 J-0.19
X405.584 Y150.553 I-0.475 J0.154
X406.535 Y150.244 I0.475 J-0.154
X406.283 Y150.115 I-0.19 J0.062
G1 X406.092 Y150.177
X406.043 Y150.193 Z-9.443
X405.997 Y150.208 Z-9.423
X405.958 Y150.221 Z-9.391
X405.928 Y150.231 Z-9.35
X405.909 Y150.237 Z-9.302
X405.902 Y150.239 Z-9.25
X406.026 Y150.619
Z-12.4 F250.
X406.032 Y150.617 Z-12.452 F500.
X406.051 Y150.611 Z-12.5
X406.081 Y150.601 Z-12.541
X406.121 Y150.589 Z-12.573
X406.167 Y150.574 Z-12.593
X406.216 Y150.558 Z-12.6
X406.406 Y150.496
G2 X406.535 Y150.244 I-0.062 J-0.19
X405.584 Y150.553 I-0.475 J0.154
X406.535 Y150.244 I0.475 J-0.154
X406.283 Y150.115 I-0.19 J0.062
G1 X406.092 Y150.177
X406.043 Y150.193 Z-12.593
X405.997 Y150.208 Z-12.573
X405.958 Y150.221 Z-12.541
X405.928 Y150.231 Z-12.5
X405.909 Y150.237 Z-12.452
X405.902 Y150.239 Z-12.4
X406.026 Y150.619
Z-15.55 F250.
X406.032 Y150.617 Z-15.602 F500.
X406.051 Y150.611 Z-15.65
X406.081 Y150.601 Z-15.691
X406.121 Y150.589 Z-15.723
X406.167 Y150.574 Z-15.743
X406.216 Y150.558 Z-15.75
X406.406 Y150.496
G2 X406.535 Y150.244 I-0.062 J-0.19
X405.584 Y150.553 I-0.475 J0.154
X406.535 Y150.244 I0.475 J-0.154
X406.283 Y150.115 I-0.19 J0.062
G1 X406.092 Y150.177
X406.043 Y150.193 Z-15.743
X405.997 Y150.208 Z-15.723
X405.958 Y150.221 Z-15.691
X405.928 Y150.231 Z-15.65
X405.909 Y150.237 Z-15.602
X405.902 Y150.239 Z-15.55
X406.026 Y150.619
Z-18.7 F250.
X406.032 Y150.617 Z-18.752 F500.
X406.051 Y150.611 Z-18.8
X406.081 Y150.601 Z-18.841
X406.121 Y150.589 Z-18.873
X406.167 Y150.574 Z-18.893
X406.216 Y150.558 Z-18.9
X406.406 Y150.496
G2 X406.535 Y150.244 I-0.062 J-0.19
X405.584 Y150.553 I-0.475 J0.154
X406.535 Y150.244 I0.475 J-0.154
X406.283 Y150.115 I-0.19 J0.062
G1 X406.092 Y150.177
X406.043 Y150.193 Z-18.893
X405.997 Y150.208 Z-18.873
X405.958 Y150.221 Z-18.841
X405.928 Y150.231 Z-18.8
X405.909 Y150.237 Z-18.752
X405.902 Y150.239 Z-18.7
X406.026 Y150.619
Z-21.8 F250.
X406.032 Y150.617 Z-21.852 F500.
X406.051 Y150.611 Z-21.9
X406.081 Y150.601 Z-21.941
X406.121 Y150.589 Z-21.973
X406.167 Y150.574 Z-21.993
X406.216 Y150.558 Z-22.
X406.406 Y150.496
G2 X406.535 Y150.244 I-0.062 J-0.19
X405.584 Y150.553 I-0.475 J0.154
X406.535 Y150.244 I0.475 J-0.154
X406.283 Y150.115 I-0.19 J0.062
G1 X406.092 Y150.177
X406.043 Y150.193 Z-21.993
X405.997 Y150.208 Z-21.973
X405.958 Y150.221 Z-21.941
X405.928 Y150.231 Z-21.9
X405.909 Y150.237 Z-21.852
X405.902 Y150.239 Z-21.8
Z5.
X386.529 Y156.954
Z4.15 F250.
Z-2.95
X386.535 Y156.952 Z-3.002 F500.
X386.554 Y156.946 Z-3.05
X386.584 Y156.936 Z-3.091
X386.624 Y156.924 Z-3.123
X386.67 Y156.909 Z-3.143
X386.719 Y156.893 Z-3.15
X386.909 Y156.831
G2 X387.038 Y156.579 I-0.062 J-0.19
X386.087 Y156.888 I-0.475 J0.154
X387.038 Y156.579 I0.475 J-0.154
X386.786 Y156.45 I-0.19 J0.062
G1 X386.595 Y156.512
X386.546 Y156.528 Z-3.143
X386.5 Y156.543 Z-3.123
X386.461 Y156.556 Z-3.091
X386.431 Y156.566 Z-3.05
X386.412 Y156.572 Z-3.002
X386.405 Y156.574 Z-2.95
X386.529 Y156.954
Z-6.1 F250.
X386.535 Y156.952 Z-6.152 F500.
X386.554 Y156.946 Z-6.2
X386.584 Y156.936 Z-6.241
X386.624 Y156.924 Z-6.273
X386.67 Y156.909 Z-6.293
X386.719 Y156.893 Z-6.3
X386.909 Y156.831
G2 X387.038 Y156.579 I-0.062 J-0.19
X386.087 Y156.888 I-0.475 J0.154
X387.038 Y156.579 I0.475 J-0.154
X386.786 Y156.45 I-0.19 J0.062
G1 X386.595 Y156.512
X386.546 Y156.528 Z-6.293
X386.5 Y156.543 Z-6.273
X386.461 Y156.556 Z-6.241
X386.431 Y156.566 Z-6.2
X386.412 Y156.572 Z-6.152
X386.405 Y156.574 Z-6.1
X386.529 Y156.954
Z-9.25 F250.
X386.535 Y156.952 Z-9.302 F500.
X386.554 Y156.946 Z-9.35
X386.584 Y156.936 Z-9.391
X386.624 Y156.924 Z-9.423
X386.67 Y156.909 Z-9.443
X386.719 Y156.893 Z-9.45
X386.909 Y156.831
G2 X387.038 Y156.579 I-0.062 J-0.19
X386.087 Y156.888 I-0.475 J0.154
X387.038 Y156.579 I0.475 J-0.154
X386.786 Y156.45 I-0.19 J0.062
G1 X386.595 Y156.512
X386.546 Y156.528 Z-9.443
X386.5 Y156.543 Z-9.423
X386.461 Y156.556 Z-9.391
X386.431 Y156.566 Z-9.35
X386.412 Y156.572 Z-9.302
X386.405 Y156.574 Z-9.25
X386.529 Y156.954
Z-12.4 F250.
X386.535 Y156.952 Z-12.452 F500.
X386.554 Y156.946 Z-12.5
X386.584 Y156.936 Z-12.541
X386.624 Y156.924 Z-12.573
X386.67 Y156.909 Z-12.593
X386.719 Y156.893 Z-12.6
X386.909 Y156.831
G2 X387.038 Y156.579 I-0.062 J-0.19
X386.087 Y156.888 I-0.475 J0.154
X387.038 Y156.579 I0.475 J-0.154
X386.786 Y156.45 I-0.19 J0.062
G1 X386.595 Y156.512
X386.546 Y156.528 Z-12.593
X386.5 Y156.543 Z-12.573
X386.461 Y156.556 Z-12.541
X386.431 Y156.566 Z-12.5
X386.412 Y156.572 Z-12.452
X386.405 Y156.574 Z-12.4
X386.529 Y156.954
Z-15.55 F250.
X386.535 Y156.952 Z-15.602 F500.
X386.554 Y156.946 Z-15.65
X386.584 Y156.936 Z-15.691
X386.624 Y156.924 Z-15.723
X386.67 Y156.909 Z-15.743
X386.719 Y156.893 Z-15.75
X386.909 Y156.831
G2 X387.038 Y156.579 I-0.062 J-0.19
X386.087 Y156.888 I-0.475 J0.154
X387.038 Y156.579 I0.475 J-0.154
X386.786 Y156.45 I-0.19 J0.062
G1 X386.595 Y156.512
X386.546 Y156.528 Z-15.743
X386.5 Y156.543 Z-15.723
X386.461 Y156.556 Z-15.691
X386.431 Y156.566 Z-15.65
X386.412 Y156.572 Z-15.602
X386.405 Y156.574 Z-15.55
X386.529 Y156.954
Z-18.7 F250.
X386.535 Y156.952 Z-18.752 F500.
X386.554 Y156.946 Z-18.8
X386.584 Y156.936 Z-18.841
X386.624 Y156.924 Z-18.873
X386.67 Y156.909 Z-18.893
X386.719 Y156.893 Z-18.9
X386.909 Y156.831
G2 X387.038 Y156.579 I-0.062 J-0.19
X386.087 Y156.888 I-0.475 J0.154
X387.038 Y156.579 I0.475 J-0.154
X386.786 Y156.45 I-0.19 J0.062
G1 X386.595 Y156.512
X386.546 Y156.528 Z-18.893
X386.5 Y156.543 Z-18.873
X386.461 Y156.556 Z-18.841
X386.431 Y156.566 Z-18.8
X386.412 Y156.572 Z-18.752
X386.405 Y156.574 Z-18.7
X386.529 Y156.954
Z-21.8 F250.
X386.535 Y156.952 Z-21.852 F500.
X386.554 Y156.946 Z-21.9
X386.584 Y156.936 Z-21.941
X386.624 Y156.924 Z-21.973
X386.67 Y156.909 Z-21.993
X386.719 Y156.893 Z-22.
X386.909 Y156.831
G2 X387.038 Y156.579 I-0.062 J-0.19
X386.087 Y156.888 I-0.475 J0.154
X387.038 Y156.579 I0.475 J-0.154
X386.786 Y156.45 I-0.19 J0.062
G1 X386.595 Y156.512
X386.546 Y156.528 Z-21.993
X386.5 Y156.543 Z-21.973
X386.461 Y156.556 Z-21.941
X386.431 Y156.566 Z-21.9
X386.412 Y156.572 Z-21.852
X386.405 Y156.574 Z-21.8
Z15.
(WHEN USING FUSION 360 FOR PERSONAL USE, THE FEEDRATE OF)
(RAPID MOVES IS REDUCED TO MATCH THE FEEDRATE OF CUTTING)
(MOVES, WHICH CAN INCREASE MACHINING TIME. UNRESTRICTED RAPID)
(MOVES ARE AVAILABLE WITH A FUSION 360 SUBSCRIPTION.)

(2D POCKET1 6)
G0 X397.27 Y156.403
G1 Z15. F500.
Z5.
Z4. F250.
Z-1.4
X397.252 Y156.426 Z-1.585
X397.207 Y156.498 Z-1.753
X397.179 Y156.558 Z-1.819
X397.157 Y156.621 Z-1.885
X397.141 Y156.703 Z-1.928
X397.135 Y156.786 Z-1.971
X397.143 Y156.878 Z-1.985
X397.165 Y156.968 Z-2.
X404.31 Y178.83 F500.
G3 X404.831 Y180.506 I-65.054 J21.134
G2 X405.351 Y182.181 I65.574 J-19.459
X405.648 Y182.332 I0.224 J-0.073
G1 X405.664 Y182.327
G2 X405.815 Y182.031 I-0.073 J-0.224
G1 X396.555 Y153.53
G2 X396.091 Y153.681 I-0.232 J0.075
G1 X397.165 Y156.968
G3 X396.318 Y160.004 I-2.699 J0.882
G2 X395.47 Y163.039 I1.853 J2.153
G1 X400.98 Y179.912
G3 X402.03 Y183.215 I-258.997 J84.141
G2 X403.08 Y186.517 I260.047 J-80.838
X403.474 Y186.718 I0.298 J-0.097
G1 X410.001 Y184.598
G2 X410.202 Y184.204 I-0.097 J-0.298
G1 X398.811 Y149.146
G2 X398.416 Y148.945 I-0.298 J0.097
G1 X391.89 Y151.065
G2 X391.689 Y151.46 I0.097 J0.298
G1 X395.47 Y163.039
G3 X394.612 Y166.099 I-2.719 J0.888
G2 X393.754 Y169.16 I1.869 J2.175
G1 X397.604 Y181.009
X399.767 Y187.667
X400.327 Y189.39
G3 X400.048 Y191.858 I-2.853 J0.927
G2 X400.25 Y192.56 I0.429 J0.257
X400.936 Y192.311 I0.227 J-0.445
G3 X402.769 Y190.634 I2.76 J1.176
G1 X412.873 Y187.352
G3 X415.341 Y187.631 I0.927 J2.853
G2 X416.044 Y187.429 I0.257 J-0.429
X415.794 Y186.742 I-0.446 J-0.227
G3 X414.116 Y184.908 I1.176 J-2.76
G1 X413.558 Y183.186
X411.394 Y176.529
X404.287 Y154.654
X402.124 Y147.997
X401.564 Y146.274
G3 X401.843 Y143.805 I2.853 J-0.927
G2 X401.642 Y143.103 I-0.429 J-0.257
X400.955 Y143.352 I-0.227 J0.445
G3 X399.122 Y145.029 I-2.76 J-1.176
G1 X389.018 Y148.312
G3 X386.55 Y148.033 I-0.927 J-2.853
G2 X385.847 Y148.235 I-0.257 J0.429
X386.097 Y148.922 I0.446 J0.227
G3 X387.773 Y150.755 I-1.177 J2.76
G1 X388.333 Y152.478
X390.496 Y159.135
X393.754 Y169.16
G2 X394.299 Y169.216 I0.285 J-0.093
G1 X395.278 Y167.507
X395.298 Y167.464
X395.312 Y167.418
X397.464 Y156.947
X397.47 Y156.475
Y156.474
X397.463 Y156.435
X397.444 Y156.401
X397.413 Y156.376
X397.376 Y156.363
X397.337
X397.3 Y156.377
X397.27 Y156.403
Z-3.4 F250.
X397.252 Y156.426 Z-3.585
X397.207 Y156.498 Z-3.753
X397.179 Y156.558 Z-3.819
X397.157 Y156.621 Z-3.885
X397.141 Y156.703 Z-3.928
X397.135 Y156.786 Z-3.971
X397.143 Y156.878 Z-3.985
X397.165 Y156.968 Z-4.
X404.31 Y178.83 F500.
G3 X404.831 Y180.506 I-65.054 J21.134
G2 X405.351 Y182.181 I65.574 J-19.459
X405.648 Y182.332 I0.224 J-0.073
G1 X405.664 Y182.327
G2 X405.815 Y182.031 I-0.073 J-0.224
G1 X396.555 Y153.53
G2 X396.091 Y153.681 I-0.232 J0.075
G1 X397.165 Y156.968
G3 X396.318 Y160.004 I-2.699 J0.882
G2 X395.47 Y163.039 I1.853 J2.153
G1 X400.98 Y179.912
G3 X402.03 Y183.215 I-258.997 J84.141
G2 X403.08 Y186.517 I260.047 J-80.838
X403.474 Y186.718 I0.298 J-0.097
G1 X410.001 Y184.598
G2 X410.202 Y184.204 I-0.097 J-0.298
G1 X398.811 Y149.146
G2 X398.416 Y148.945 I-0.298 J0.097
G1 X391.89 Y151.065
G2 X391.689 Y151.46 I0.097 J0.298
G1 X395.47 Y163.039
G3 X394.612 Y166.099 I-2.719 J0.888
G2 X393.754 Y169.16 I1.869 J2.175
G1 X397.604 Y181.009
X399.767 Y187.667
X400.327 Y189.39
G3 X400.048 Y191.858 I-2.853 J0.927
G2 X400.25 Y192.56 I0.429 J0.257
X400.936 Y192.311 I0.227 J-0.445
G3 X402.769 Y190.634 I2.76 J1.176
G1 X412.873 Y187.352
G3 X415.341 Y187.631 I0.927 J2.853
G2 X416.044 Y187.429 I0.257 J-0.429
X415.794 Y186.742 I-0.446 J-0.227
G3 X414.116 Y184.908 I1.176 J-2.76
G1 X413.558 Y183.186
X411.394 Y176.529
X404.287 Y154.654
X402.124 Y147.997
X401.564 Y146.274
G3 X401.843 Y143.805 I2.853 J-0.927
G2 X401.642 Y143.103 I-0.429 J-0.257
X400.955 Y143.352 I-0.227 J0.445
G3 X399.122 Y145.029 I-2.76 J-1.176
G1 X389.018 Y148.312
G3 X386.55 Y148.033 I-0.927 J-2.853
G2 X385.847 Y148.235 I-0.257 J0.429
X386.097 Y148.922 I0.446 J0.227
G3 X387.773 Y150.755 I-1.177 J2.76
G1 X388.333 Y152.478
X390.496 Y159.135
X393.754 Y169.16
X393.789 Y169.246 Z-3.985
X393.837 Y169.325 Z-3.971
X393.891 Y169.389 Z-3.928
X393.952 Y169.445 Z-3.885
X394.007 Y169.483 Z-3.819
X394.065 Y169.515 Z-3.753
X394.144 Y169.547 Z-3.585
X394.172 Y169.555 Z-3.4
Z15.
(WHEN USING FUSION 360 FOR PERSONAL USE, THE FEEDRATE OF)
(RAPID MOVES IS REDUCED TO MATCH THE FEEDRATE OF CUTTING)
(MOVES, WHICH CAN INCREASE MACHINING TIME. UNRESTRICTED RAPID)
(MOVES ARE AVAILABLE WITH A FUSION 360 SUBSCRIPTION.)

(2D CONTOUR1 8)
G0 X351.702 Y75.96
G1 Z15. F500.
Z5.
Z4.15 F250.
Z-2.95
X351.707 Y75.964 Z-3.002 F500.
X351.723 Y75.975 Z-3.05
X351.749 Y75.994 Z-3.091
X351.783 Y76.018 Z-3.123
X351.822 Y76.047 Z-3.143
X351.864 Y76.077 Z-3.15
X352.025 Y76.195
G2 X352.305 Y76.15 I0.118 J-0.162
X351.496 Y75.563 I-0.405 J-0.294
X352.305 Y76.15 I0.405 J0.294
X352.26 Y75.871 I-0.162 J-0.118
G1 X352.099 Y75.754
X352.057 Y75.723 Z-3.143
X352.018 Y75.695 Z-3.123
X351.984 Y75.67 Z-3.091
X351.958 Y75.652 Z-3.05
X351.942 Y75.64 Z-3.002
X351.937 Y75.636 Z-2.95
X351.702 Y75.96
Z-6.1 F250.
X351.707 Y75.964 Z-6.152 F500.
X351.723 Y75.975 Z-6.2
X351.749 Y75.994 Z-6.241
X351.783 Y76.018 Z-6.273
X351.822 Y76.047 Z-6.293
X351.864 Y76.077 Z-6.3
X352.025 Y76.195
G2 X352.305 Y76.15 I0.118 J-0.162
X351.496 Y75.563 I-0.405 J-0.294
X352.305 Y76.15 I0.405 J0.294
X352.26 Y75.871 I-0.162 J-0.118
G1 X352.099 Y75.754
X352.057 Y75.723 Z-6.293
X352.018 Y75.695 Z-6.273
X351.984 Y75.67 Z-6.241
X351.958 Y75.652 Z-6.2
X351.942 Y75.64 Z-6.152
X351.937 Y75.636 Z-6.1
X351.702 Y75.96
Z-9.25 F250.
X351.707 Y75.964 Z-9.302 F500.
X351.723 Y75.975 Z-9.35
X351.749 Y75.994 Z-9.391
X351.783 Y76.018 Z-9.423
X351.822 Y76.047 Z-9.443
X351.864 Y76.077 Z-9.45
X352.025 Y76.195
G2 X352.305 Y76.15 I0.118 J-0.162
X351.496 Y75.563 I-0.405 J-0.294
X352.305 Y76.15 I0.405 J0.294
X352.26 Y75.871 I-0.162 J-0.118
G1 X352.099 Y75.754
X352.057 Y75.723 Z-9.443
X352.018 Y75.695 Z-9.423
X351.984 Y75.67 Z-9.391
X351.958 Y75.652 Z-9.35
X351.942 Y75.64 Z-9.302
X351.937 Y75.636 Z-9.25
X351.702 Y75.96
Z-12.4 F250.
X351.707 Y75.964 Z-12.452 F500.
X351.723 Y75.975 Z-12.5
X351.749 Y75.994 Z-12.541
X351.783 Y76.018 Z-12.573
X351.822 Y76.047 Z-12.593
X351.864 Y76.077 Z-12.6
X352.025 Y76.195
G2 X352.305 Y76.15 I0.118 J-0.162
X351.496 Y75.563 I-0.405 J-0.294
X352.305 Y76.15 I0.405 J0.294
X352.26 Y75.871 I-0.162 J-0.118
G1 X352.099 Y75.754
X352.057 Y75.723 Z-12.593
X352.018 Y75.695 Z-12.573
X351.984 Y75.67 Z-12.541
X351.958 Y75.652 Z-12.5
X351.942 Y75.64 Z-12.452
X351.937 Y75.636 Z-12.4
X351.702 Y75.96
Z-15.55 F250.
X351.707 Y75.964 Z-15.602 F500.
X351.723 Y75.975 Z-15.65
X351.749 Y75.994 Z-15.691
X351.783 Y76.018 Z-15.723
X351.822 Y76.047 Z-15.743
X351.864 Y76.077 Z-15.75
X352.025 Y76.195
G2 X352.305 Y76.15 I0.118 J-0.162
X351.496 Y75.563 I-0.405 J-0.294
X352.305 Y76.15 I0.405 J0.294
X352.26 Y75.871 I-0.162 J-0.118
G1 X352.099 Y75.754
X352.057 Y75.723 Z-15.743
X352.018 Y75.695 Z-15.723
X351.984 Y75.67 Z-15.691
X351.958 Y75.652 Z-15.65
X351.942 Y75.64 Z-15.602
X351.937 Y75.636 Z-15.55
X351.702 Y75.96
Z-18.7 F250.
X351.707 Y75.964 Z-18.752 F500.
X351.723 Y75.975 Z-18.8
X351.749 Y75.994 Z-18.841
X351.783 Y76.018 Z-18.873
X351.822 Y76.047 Z-18.893
X351.864 Y76.077 Z-18.9
X352.025 Y76.195
G2 X352.305 Y76.15 I0.118 J-0.162
X351.496 Y75.563 I-0.405 J-0.294
X352.305 Y76.15 I0.405 J0.294
X352.26 Y75.871 I-0.162 J-0.118
G1 X352.099 Y75.754
X352.057 Y75.723 Z-18.893
X352.018 Y75.695 Z-18.873
X351.984 Y75.67 Z-18.841
X351.958 Y75.652 Z-18.8
X351.942 Y75.64 Z-18.752
X351.937 Y75.636 Z-18.7
X351.702 Y75.96
Z-21.8 F250.
X351.707 Y75.964 Z-21.852 F500.
X351.723 Y75.975 Z-21.9
X351.749 Y75.994 Z-21.941
X351.783 Y76.018 Z-21.973
X351.822 Y76.047 Z-21.993
X351.864 Y76.077 Z-22.
X352.025 Y76.195
G2 X352.305 Y76.15 I0.118 J-0.162
X351.496 Y75.563 I-0.405 J-0.294
X352.305 Y76.15 I0.405 J0.294
X352.26 Y75.871 I-0.162 J-0.118
G1 X352.099 Y75.754
X352.057 Y75.723 Z-21.993
X352.018 Y75.695 Z-21.973
X351.984 Y75.67 Z-21.941
X351.958 Y75.652 Z-21.9
X351.942 Y75.64 Z-21.852
X351.937 Y75.636 Z-21.8
Z5.
X339.652 Y92.544
Z4.15 F250.
Z-2.95
X339.658 Y92.548 Z-3.002 F500.
X339.674 Y92.559 Z-3.05
X339.7 Y92.578 Z-3.091
X339.733 Y92.602 Z-3.123
X339.772 Y92.631 Z-3.143
X339.814 Y92.661 Z-3.15
X339.976 Y92.779
G2 X340.255 Y92.735 I0.118 J-0.162
X339.446 Y92.147 I-0.404 J-0.294
X340.255 Y92.735 I0.404 J0.294
X340.211 Y92.455 I-0.162 J-0.118
G1 X340.049 Y92.338
X340.007 Y92.307 Z-3.143
X339.968 Y92.279 Z-3.123
X339.935 Y92.254 Z-3.091
X339.909 Y92.236 Z-3.05
X339.893 Y92.224 Z-3.002
X339.887 Y92.22 Z-2.95
X339.652 Y92.544
Z-6.1 F250.
X339.658 Y92.548 Z-6.152 F500.
X339.674 Y92.559 Z-6.2
X339.7 Y92.578 Z-6.241
X339.733 Y92.602 Z-6.273
X339.772 Y92.631 Z-6.293
X339.814 Y92.661 Z-6.3
X339.976 Y92.779
G2 X340.255 Y92.735 I0.118 J-0.162
X339.446 Y92.147 I-0.404 J-0.294
X340.255 Y92.735 I0.404 J0.294
X340.211 Y92.455 I-0.162 J-0.118
G1 X340.049 Y92.338
X340.007 Y92.307 Z-6.293
X339.968 Y92.279 Z-6.273
X339.935 Y92.254 Z-6.241
X339.909 Y92.236 Z-6.2
X339.893 Y92.224 Z-6.152
X339.887 Y92.22 Z-6.1
X339.652 Y92.544
Z-9.25 F250.
X339.658 Y92.548 Z-9.302 F500.
X339.674 Y92.559 Z-9.35
X339.7 Y92.578 Z-9.391
X339.733 Y92.602 Z-9.423
X339.772 Y92.631 Z-9.443
X339.814 Y92.661 Z-9.45
X339.976 Y92.779
G2 X340.255 Y92.735 I0.118 J-0.162
X339.446 Y92.147 I-0.404 J-0.294
X340.255 Y92.735 I0.404 J0.294
X340.211 Y92.455 I-0.162 J-0.118
G1 X340.049 Y92.338
X340.007 Y92.307 Z-9.443
X339.968 Y92.279 Z-9.423
X339.935 Y92.254 Z-9.391
X339.909 Y92.236 Z-9.35
X339.893 Y92.224 Z-9.302
X339.887 Y92.22 Z-9.25
X339.652 Y92.544
Z-12.4 F250.
X339.658 Y92.548 Z-12.452 F500.
X339.674 Y92.559 Z-12.5
X339.7 Y92.578 Z-12.541
X339.733 Y92.602 Z-12.573
X339.772 Y92.631 Z-12.593
X339.814 Y92.661 Z-12.6
X339.976 Y92.779
G2 X340.255 Y92.735 I0.118 J-0.162
X339.446 Y92.147 I-0.404 J-0.294
X340.255 Y92.735 I0.404 J0.294
X340.211 Y92.455 I-0.162 J-0.118
G1 X340.049 Y92.338
X340.007 Y92.307 Z-12.593
X339.968 Y92.279 Z-12.573
X339.935 Y92.254 Z-12.541
X339.909 Y92.236 Z-12.5
X339.893 Y92.224 Z-12.452
X339.887 Y92.22 Z-12.4
X339.652 Y92.544
Z-15.55 F250.
X339.658 Y92.548 Z-15.602 F500.
X339.674 Y92.559 Z-15.65
X339.7 Y92.578 Z-15.691
X339.733 Y92.602 Z-15.723
X339.772 Y92.631 Z-15.743
X339.814 Y92.661 Z-15.75
X339.976 Y92.779
G2 X340.255 Y92.735 I0.118 J-0.162
X339.446 Y92.147 I-0.404 J-0.294
X340.255 Y92.735 I0.404 J0.294
X340.211 Y92.455 I-0.162 J-0.118
G1 X340.049 Y92.338
X340.007 Y92.307 Z-15.743
X339.968 Y92.279 Z-15.723
X339.935 Y92.254 Z-15.691
X339.909 Y92.236 Z-15.65
X339.893 Y92.224 Z-15.602
X339.887 Y92.22 Z-15.55
X339.652 Y92.544
Z-18.7 F250.
X339.658 Y92.548 Z-18.752 F500.
X339.674 Y92.559 Z-18.8
X339.7 Y92.578 Z-18.841
X339.733 Y92.602 Z-18.873
X339.772 Y92.631 Z-18.893
X339.814 Y92.661 Z-18.9
X339.976 Y92.779
G2 X340.255 Y92.735 I0.118 J-0.162
X339.446 Y92.147 I-0.404 J-0.294
X340.255 Y92.735 I0.404 J0.294
X340.211 Y92.455 I-0.162 J-0.118
G1 X340.049 Y92.338
X340.007 Y92.307 Z-18.893
X339.968 Y92.279 Z-18.873
X339.935 Y92.254 Z-18.841
X339.909 Y92.236 Z-18.8
X339.893 Y92.224 Z-18.752
X339.887 Y92.22 Z-18.7
X339.652 Y92.544
Z-21.8 F250.
X339.658 Y92.548 Z-21.852 F500.
X339.674 Y92.559 Z-21.9
X339.7 Y92.578 Z-21.941
X339.733 Y92.602 Z-21.973
X339.772 Y92.631 Z-21.993
X339.814 Y92.661 Z-22.
X339.976 Y92.779
G2 X340.255 Y92.735 I0.118 J-0.162
X339.446 Y92.147 I-0.404 J-0.294
X340.255 Y92.735 I0.404 J0.294
X340.211 Y92.455 I-0.162 J-0.118
G1 X340.049 Y92.338
X340.007 Y92.307 Z-21.993
X339.968 Y92.279 Z-21.973
X339.935 Y92.254 Z-21.941
X339.909 Y92.236 Z-21.9
X339.893 Y92.224 Z-21.852
X339.887 Y92.22 Z-21.8
Z5.
X315.382 Y74.911
Z4.15 F250.
Z-2.95
X315.387 Y74.915 Z-3.002 F500.
X315.403 Y74.927 Z-3.05
X315.429 Y74.945 Z-3.091
X315.463 Y74.97 Z-3.123
X315.502 Y74.998 Z-3.143
X315.544 Y75.028 Z-3.15
X315.705 Y75.146
G2 X315.985 Y75.102 I0.118 J-0.162
X315.176 Y74.514 I-0.404 J-0.294
X315.985 Y75.102 I0.404 J0.294
X315.94 Y74.822 I-0.162 J-0.118
G1 X315.779 Y74.705
X315.737 Y74.674 Z-3.143
X315.698 Y74.646 Z-3.123
X315.664 Y74.622 Z-3.091
X315.638 Y74.603 Z-3.05
X315.622 Y74.591 Z-3.002
X315.617 Y74.587 Z-2.95
X315.382 Y74.911
Z-6.1 F250.
X315.387 Y74.915 Z-6.152 F500.
X315.403 Y74.927 Z-6.2
X315.429 Y74.945 Z-6.241
X315.463 Y74.97 Z-6.273
X315.502 Y74.998 Z-6.293
X315.544 Y75.028 Z-6.3
X315.705 Y75.146
G2 X315.985 Y75.102 I0.118 J-0.162
X315.176 Y74.514 I-0.404 J-0.294
X315.985 Y75.102 I0.404 J0.294
X315.94 Y74.822 I-0.162 J-0.118
G1 X315.779 Y74.705
X315.737 Y74.674 Z-6.293
X315.698 Y74.646 Z-6.273
X315.664 Y74.622 Z-6.241
X315.638 Y74.603 Z-6.2
X315.622 Y74.591 Z-6.152
X315.617 Y74.587 Z-6.1
X315.382 Y74.911
Z-9.25 F250.
X315.387 Y74.915 Z-9.302 F500.
X315.403 Y74.927 Z-9.35
X315.429 Y74.945 Z-9.391
X315.463 Y74.97 Z-9.423
X315.502 Y74.998 Z-9.443
X315.544 Y75.028 Z-9.45
X315.705 Y75.146
G2 X315.985 Y75.102 I0.118 J-0.162
X315.176 Y74.514 I-0.404 J-0.294
X315.985 Y75.102 I0.404 J0.294
X315.94 Y74.822 I-0.162 J-0.118
G1 X315.779 Y74.705
X315.737 Y74.674 Z-9.443
X315.698 Y74.646 Z-9.423
X315.664 Y74.622 Z-9.391
X315.638 Y74.603 Z-9.35
X315.622 Y74.591 Z-9.302
X315.617 Y74.587 Z-9.25
X315.382 Y74.911
Z-12.4 F250.
X315.387 Y74.915 Z-12.452 F500.
X315.403 Y74.927 Z-12.5
X315.429 Y74.945 Z-12.541
X315.463 Y74.97 Z-12.573
X315.502 Y74.998 Z-12.593
X315.544 Y75.028 Z-12.6
X315.705 Y75.146
G2 X315.985 Y75.102 I0.118 J-0.162
X315.176 Y74.514 I-0.404 J-0.294
X315.985 Y75.102 I0.404 J0.294
X315.94 Y74.822 I-0.162 J-0.118
G1 X315.779 Y74.705
X315.737 Y74.674 Z-12.593
X315.698 Y74.646 Z-12.573
X315.664 Y74.622 Z-12.541
X315.638 Y74.603 Z-12.5
X315.622 Y74.591 Z-12.452
X315.617 Y74.587 Z-12.4
X315.382 Y74.911
Z-15.55 F250.
X315.387 Y74.915 Z-15.602 F500.
X315.403 Y74.927 Z-15.65
X315.429 Y74.945 Z-15.691
X315.463 Y74.97 Z-15.723
X315.502 Y74.998 Z-15.743
X315.544 Y75.028 Z-15.75
X315.705 Y75.146
G2 X315.985 Y75.102 I0.118 J-0.162
X315.176 Y74.514 I-0.404 J-0.294
X315.985 Y75.102 I0.404 J0.294
X315.94 Y74.822 I-0.162 J-0.118
G1 X315.779 Y74.705
X315.737 Y74.674 Z-15.743
X315.698 Y74.646 Z-15.723
X315.664 Y74.622 Z-15.691
X315.638 Y74.603 Z-15.65
X315.622 Y74.591 Z-15.602
X315.617 Y74.587 Z-15.55
X315.382 Y74.911
Z-18.7 F250.
X315.387 Y74.915 Z-18.752 F500.
X315.403 Y74.927 Z-18.8
X315.429 Y74.945 Z-18.841
X315.463 Y74.97 Z-18.873
X315.502 Y74.998 Z-18.893
X315.544 Y75.028 Z-18.9
X315.705 Y75.146
G2 X315.985 Y75.102 I0.118 J-0.162
X315.176 Y74.514 I-0.404 J-0.294
X315.985 Y75.102 I0.404 J0.294
X315.94 Y74.822 I-0.162 J-0.118
G1 X315.779 Y74.705
X315.737 Y74.674 Z-18.893
X315.698 Y74.646 Z-18.873
X315.664 Y74.622 Z-18.841
X315.638 Y74.603 Z-18.8
X315.622 Y74.591 Z-18.752
X315.617 Y74.587 Z-18.7
X315.382 Y74.911
Z-21.8 F250.
X315.387 Y74.915 Z-21.852 F500.
X315.403 Y74.927 Z-21.9
X315.429 Y74.945 Z-21.941
X315.463 Y74.97 Z-21.973
X315.502 Y74.998 Z-21.993
X315.544 Y75.028 Z-22.
X315.705 Y75.146
G2 X315.985 Y75.102 I0.118 J-0.162
X315.176 Y74.514 I-0.404 J-0.294
X315.985 Y75.102 I0.404 J0.294
X315.94 Y74.822 I-0.162 J-0.118
G1 X315.779 Y74.705
X315.737 Y74.674 Z-21.993
X315.698 Y74.646 Z-21.973
X315.664 Y74.622 Z-21.941
X315.638 Y74.603 Z-21.9
X315.622 Y74.591 Z-21.852
X315.617 Y74.587 Z-21.8
Z5.
X327.431 Y58.325
Z4.15 F250.
Z-2.95
X327.437 Y58.329 Z-3.002 F500.
X327.453 Y58.341 Z-3.05
X327.479 Y58.36 Z-3.091
X327.512 Y58.384 Z-3.123
X327.551 Y58.412 Z-3.143
X327.593 Y58.443 Z-3.15
X327.755 Y58.56
G2 X328.034 Y58.516 I0.118 J-0.162
X327.225 Y57.928 I-0.404 J-0.294
X328.034 Y58.516 I0.404 J0.294
X327.99 Y58.237 I-0.162 J-0.118
G1 X327.828 Y58.119
X327.786 Y58.089 Z-3.143
X327.747 Y58.06 Z-3.123
X327.714 Y58.036 Z-3.091
X327.688 Y58.017 Z-3.05
X327.672 Y58.006 Z-3.002
X327.666 Y58.002 Z-2.95
X327.431 Y58.325
Z-6.1 F250.
X327.437 Y58.329 Z-6.152 F500.
X327.453 Y58.341 Z-6.2
X327.479 Y58.36 Z-6.241
X327.512 Y58.384 Z-6.273
X327.551 Y58.412 Z-6.293
X327.593 Y58.443 Z-6.3
X327.755 Y58.56
G2 X328.034 Y58.516 I0.118 J-0.162
X327.225 Y57.928 I-0.404 J-0.294
X328.034 Y58.516 I0.404 J0.294
X327.99 Y58.237 I-0.162 J-0.118
G1 X327.828 Y58.119
X327.786 Y58.089 Z-6.293
X327.747 Y58.06 Z-6.273
X327.714 Y58.036 Z-6.241
X327.688 Y58.017 Z-6.2
X327.672 Y58.006 Z-6.152
X327.666 Y58.002 Z-6.1
X327.431 Y58.325
Z-9.25 F250.
X327.437 Y58.329 Z-9.302 F500.
X327.453 Y58.341 Z-9.35
X327.479 Y58.36 Z-9.391
X327.512 Y58.384 Z-9.423
X327.551 Y58.412 Z-9.443
X327.593 Y58.443 Z-9.45
X327.755 Y58.56
G2 X328.034 Y58.516 I0.118 J-0.162
X327.225 Y57.928 I-0.404 J-0.294
X328.034 Y58.516 I0.404 J0.294
X327.99 Y58.237 I-0.162 J-0.118
G1 X327.828 Y58.119
X327.786 Y58.089 Z-9.443
X327.747 Y58.06 Z-9.423
X327.714 Y58.036 Z-9.391
X327.688 Y58.017 Z-9.35
X327.672 Y58.006 Z-9.302
X327.666 Y58.002 Z-9.25
X327.431 Y58.325
Z-12.4 F250.
X327.437 Y58.329 Z-12.452 F500.
X327.453 Y58.341 Z-12.5
X327.479 Y58.36 Z-12.541
X327.512 Y58.384 Z-12.573
X327.551 Y58.412 Z-12.593
X327.593 Y58.443 Z-12.6
X327.755 Y58.56
G2 X328.034 Y58.516 I0.118 J-0.162
X327.225 Y57.928 I-0.404 J-0.294
X328.034 Y58.516 I0.404 J0.294
X327.99 Y58.237 I-0.162 J-0.118
G1 X327.828 Y58.119
X327.786 Y58.089 Z-12.593
X327.747 Y58.06 Z-12.573
X327.714 Y58.036 Z-12.541
X327.688 Y58.017 Z-12.5
X327.672 Y58.006 Z-12.452
X327.666 Y58.002 Z-12.4
X327.431 Y58.325
Z-15.55 F250.
X327.437 Y58.329 Z-15.602 F500.
X327.453 Y58.341 Z-15.65
X327.479 Y58.36 Z-15.691
X327.512 Y58.384 Z-15.723
X327.551 Y58.412 Z-15.743
X327.593 Y58.443 Z-15.75
X327.755 Y58.56
G2 X328.034 Y58.516 I0.118 J-0.162
X327.225 Y57.928 I-0.404 J-0.294
X328.034 Y58.516 I0.404 J0.294
X327.99 Y58.237 I-0.162 J-0.118
G1 X327.828 Y58.119
X327.786 Y58.089 Z-15.743
X327.747 Y58.06 Z-15.723
X327.714 Y58.036 Z-15.691
X327.688 Y58.017 Z-15.65
X327.672 Y58.006 Z-15.602
X327.666 Y58.002 Z-15.55
X327.431 Y58.325
Z-18.7 F250.
X327.437 Y58.329 Z-18.752 F500.
X327.453 Y58.341 Z-18.8
X327.479 Y58.36 Z-18.841
X327.512 Y58.384 Z-18.873
X327.551 Y58.412 Z-18.893
X327.593 Y58.443 Z-18.9
X327.755 Y58.56
G2 X328.034 Y58.516 I0.118 J-0.162
X327.225 Y57.928 I-0.404 J-0.294
X328.034 Y58.516 I0.404 J0.294
X327.99 Y58.237 I-0.162 J-0.118
G1 X327.828 Y58.119
X327.786 Y58.089 Z-18.893
X327.747 Y58.06 Z-18.873
X327.714 Y58.036 Z-18.841
X327.688 Y58.017 Z-18.8
X327.672 Y58.006 Z-18.752
X327.666 Y58.002 Z-18.7
X327.431 Y58.325
Z-21.8 F250.
X327.437 Y58.329 Z-21.852 F500.
X327.453 Y58.341 Z-21.9
X327.479 Y58.36 Z-21.941
X327.512 Y58.384 Z-21.973
X327.551 Y58.412 Z-21.993
X327.593 Y58.443 Z-22.
X327.755 Y58.56
G2 X328.034 Y58.516 I0.118 J-0.162
X327.225 Y57.928 I-0.404 J-0.294
X328.034 Y58.516 I0.404 J0.294
X327.99 Y58.237 I-0.162 J-0.118
G1 X327.828 Y58.119
X327.786 Y58.089 Z-21.993
X327.747 Y58.06 Z-21.973
X327.714 Y58.036 Z-21.941
X327.688 Y58.017 Z-21.9
X327.672 Y58.006 Z-21.852
X327.666 Y58.002 Z-21.8
Z15.
(WHEN USING FUSION 360 FOR PERSONAL USE, THE FEEDRATE OF)
(RAPID MOVES IS REDUCED TO MATCH THE FEEDRATE OF CUTTING)
(MOVES, WHICH CAN INCREASE MACHINING TIME. UNRESTRICTED RAPID)
(MOVES ARE AVAILABLE WITH A FUSION 360 SUBSCRIPTION.)

(2D POCKET1 7)
G0 X346.266 Y84.47
G1 Z15. F500.
Z5.
Z4. F250.
Z-1.4
X346.267 Y84.441 Z-1.585
X346.261 Y84.356 Z-1.753
X346.249 Y84.291 Z-1.819
X346.229 Y84.228 Z-1.885
X346.195 Y84.151 Z-1.928
X346.15 Y84.081 Z-1.971
X346.089 Y84.011 Z-1.985
X346.019 Y83.951 Z-2.
X324.553 Y68.411 F500.
G3 X323.147 Y67.362 I40.202 J-55.332
G2 X321.741 Y66.313 I-41.608 J54.282
X321.413 Y66.365 I-0.138 J0.19
G1 X321.403 Y66.379
G2 X321.455 Y66.707 I0.19 J0.138
G1 X345.739 Y84.351
G2 X346.068 Y84.299 I0.138 J-0.19
G1 X346.078 Y84.285
G2 X346.026 Y83.956 I-0.19 J-0.138
G1 X346.019 Y83.951
G3 X344.921 Y80.99 I1.666 J-2.301
G2 X343.824 Y78.03 I-2.772 J-0.656
G1 X321.03 Y61.469
G2 X320.593 Y61.539 I-0.184 J0.253
G1 X316.559 Y67.09
G2 X316.628 Y67.527 I0.253 J0.184
G1 X346.451 Y89.195
G2 X346.888 Y89.125 I0.184 J-0.253
G1 X350.921 Y83.573
G2 X350.852 Y83.136 I-0.253 J-0.184
G1 X343.824 Y78.03
G3 X342.727 Y75.066 I1.674 J-2.305
G2 X341.63 Y72.102 I-2.771 J-0.659
G1 X328.698 Y62.707
X323.035 Y58.592
X321.569 Y57.528
G3 X320.344 Y55.366 I1.763 J-2.427
G2 X319.768 Y54.917 I-0.498 J0.044
X319.359 Y55.522 I0.078 J0.494
G3 X318.862 Y57.956 I-2.924 J0.671
G1 X312.617 Y66.551
G3 X310.456 Y67.776 I-2.427 J-1.763
G2 X310.006 Y68.352 I0.044 J0.498
X310.612 Y68.761 I0.494 J-0.078
G3 X313.046 Y69.258 I0.671 J2.924
G1 X314.512 Y70.323
X320.175 Y74.438
X338.782 Y87.957
X344.445 Y92.071
X345.911 Y93.136
G3 X347.136 Y95.297 I-1.763 J2.427
G2 X347.713 Y95.747 I0.498 J-0.044
X348.122 Y95.141 I-0.078 J-0.494
G3 X348.619 Y92.708 I2.924 J-0.671
G1 X354.863 Y84.113
G3 X357.024 Y82.888 I2.427 J1.763
G2 X357.474 Y82.312 I-0.044 J-0.498
X356.868 Y81.903 I-0.494 J0.078
G3 X354.435 Y81.406 I-0.67 J-2.924
G1 X352.969 Y80.341
X347.306 Y76.226
X341.63 Y72.102
G2 X341.155 Y72.377 I-0.176 J0.243
G1 X341.365 Y74.369
X341.374 Y74.416
X341.39 Y74.461
X345.782 Y84.139
X346.059 Y84.53
X346.087 Y84.558
X346.124 Y84.575
X346.164 Y84.578
X346.202 Y84.567
X346.235 Y84.543
X346.257 Y84.509
X346.266 Y84.47
Z-3.4 F250.
X346.267 Y84.441 Z-3.585
X346.261 Y84.356 Z-3.753
X346.249 Y84.291 Z-3.819
X346.229 Y84.228 Z-3.885
X346.195 Y84.151 Z-3.928
X346.15 Y84.081 Z-3.971
X346.089 Y84.011 Z-3.985
X346.019 Y83.951 Z-4.
X324.553 Y68.411 F500.
G3 X323.147 Y67.362 I40.202 J-55.332
G2 X321.741 Y66.313 I-41.608 J54.282
X321.413 Y66.365 I-0.138 J0.19
G1 X321.403 Y66.379
G2 X321.455 Y66.707 I0.19 J0.138
G1 X345.739 Y84.351
G2 X346.068 Y84.299 I0.138 J-0.19
G1 X346.078 Y84.285
G2 X346.026 Y83.956 I-0.19 J-0.138
G1 X346.019 Y83.951
G3 X344.921 Y80.99 I1.666 J-2.301
G2 X343.824 Y78.03 I-2.772 J-0.656
G1 X321.03 Y61.469
G2 X320.593 Y61.539 I-0.184 J0.253
G1 X316.559 Y67.09
G2 X316.628 Y67.527 I0.253 J0.184
G1 X346.451 Y89.195
G2 X346.888 Y89.125 I0.184 J-0.253
G1 X350.921 Y83.573
G2 X350.852 Y83.136 I-0.253 J-0.184
G1 X343.824 Y78.03
G3 X342.727 Y75.066 I1.674 J-2.305
G2 X341.63 Y72.102 I-2.771 J-0.659
G1 X328.698 Y62.707
X323.035 Y58.592
X321.569 Y57.528
G3 X320.344 Y55.366 I1.763 J-2.427
G2 X319.768 Y54.917 I-0.498 J0.044
X319.359 Y55.522 I0.078 J0.494
G3 X318.862 Y57.956 I-2.924 J0.671
G1 X312.617 Y66.551
G3 X310.456 Y67.776 I-2.427 J-1.763
G2 X310.006 Y68.352 I0.044 J0.498
X310.612 Y68.761 I0.494 J-0.078
G3 X313.046 Y69.258 I0.671 J2.924
G1 X314.512 Y70.323
X320.175 Y74.438
X338.782 Y87.957
X344.445 Y92.071
X345.911 Y93.136
G3 X347.136 Y95.297 I-1.763 J2.427
G2 X347.713 Y95.747 I0.498 J-0.044
X348.122 Y95.141 I-0.078 J-0.494
G3 X348.619 Y92.708 I2.924 J-0.671
G1 X354.863 Y84.113
G3 X357.024 Y82.888 I2.427 J1.763
G2 X357.474 Y82.312 I-0.044 J-0.498
X356.868 Y81.903 I-0.494 J0.078
G3 X354.435 Y81.406 I-0.67 J-2.924
G1 X352.969 Y80.341
X347.306 Y76.226
X341.63 Y72.102
X341.551 Y72.054 Z-3.985
X341.465 Y72.018 Z-3.971
X341.384 Y71.997 Z-3.928
X341.301 Y71.988 Z-3.885
X341.235 Y71.989 Z-3.819
X341.169 Y71.998 Z-3.753
X341.087 Y72.019 Z-3.585
X341.059 Y72.029 Z-3.4
Z15.
(WHEN USING FUSION 360 FOR PERSONAL USE, THE FEEDRATE OF)
(RAPID MOVES IS REDUCED TO MATCH THE FEEDRATE OF CUTTING)
(MOVES, WHICH CAN INCREASE MACHINING TIME. UNRESTRICTED RAPID)
(MOVES ARE AVAILABLE WITH A FUSION 360 SUBSCRIPTION.)

(2D CONTOUR1 9)
G0 X209.9 Y50.45
G1 Z15. F500.
Z5.
Z4.15 F250.
Z-2.95
G18 G2 X210.1 Z-3.15 I0.2 K0. F500.
G1 X210.3
G17 G2 X210.5 Y50.25 I0. J-0.2
X209.5 I-0.5 J0.
X210.5 I0.5 J0.
X210.3 Y50.05 I-0.2 J0.
G1 X210.1
G18 G3 X209.9 Z-2.95 I0. K0.2
G1 Y50.45
Z-6.1 F250.
G2 X210.1 Z-6.3 I0.2 K0. F500.
G1 X210.3
G17 G2 X210.5 Y50.25 I0. J-0.2
X209.5 I-0.5 J0.
X210.5 I0.5 J0.
X210.3 Y50.05 I-0.2 J0.
